SrikarBharadwajR/RoboticsLab-6DOF/test.csv
__time,/joint_states/elbow_joint/position,/joint_states/elbow_joint/velocity,/joint_states/gripper_joint1/position,/joint_states/header/stamp,/joint_states/shoulder_lift_joint/position,/joint_states/shoulder_lift_joint/velocity,/joint_states/shoulder_pan_joint/position,/joint_states/shoulder_pan_joint/velocity,/joint_states/wrist_1_joint/position,/joint_states/wrist_1_joint/velocity,/joint_states/wrist_2_joint/position,/joint_states/wrist_2_joint/velocity,/joint_states/wrist_3_joint/position,/joint_states/wrist_3_joint/velocity,/published_joint_angles/elbow_joint/position,/published_joint_angles/header/stamp,/published_joint_angles/shoulder_lift_joint/position,/published_joint_angles/shoulder_pan_joint/position,/published_joint_angles/wrist_1_joint/position,/published_joint_angles/wrist_2_joint/position,/published_joint_angles/wrist_3_joint/position
1736401563.868694,-0.880653522,-0.024971281,,81.034000000,0.097707162,-0.000282622,-0.148865751,0.001593264,0.400370265,-0.000219687,-1.546241763,-0.000408766,-0.248108250,0.000193486,,,,,,,
1736401563.868743,-0.880665003,-0.024914046,,81.035000000,0.097728247,0.019434888,-0.148867303,0.000741720,0.400370116,-0.000148137,-1.546255835,-0.000330853,-0.248109432,0.000138134,,,,,,,
1736401563.868783,-0.880676194,-0.024567666,,81.036000000,0.097683432,-0.026740556,-0.148864637,0.004019206,0.400369428,-0.000615224,-1.546270666,-0.001010673,-0.248110347,0.000349679,,,,,,,
1736401563.868822,-0.880688135,-0.024971230,,81.037000000,0.097711258,-0.000282619,-0.148867775,0.001593292,0.400369603,-0.000219653,-1.546284214,-0.000408747,-0.248111630,0.000193488,,,,,,,
1736401563.871903,-0.880699615,-0.024913842,,81.038000000,0.097732344,0.019434793,-0.148869327,0.000741893,0.400369454,-0.000148111,-1.546298287,-0.000330848,-0.248112812,0.000138138,,,,,,,
1736401563.874721,-0.880710806,-0.024567394,,81.039000000,0.097687530,-0.026739378,-0.148866661,0.004018989,0.400368766,-0.000615190,-1.546313117,-0.001010655,-0.248113727,0.000349678,,,,,,,
1736401563.878056,-0.880722747,-0.024971180,,81.040000000,0.097715355,-0.000282617,-0.148869798,0.001593321,0.400368941,-0.000219619,-1.546326665,-0.000408728,-0.248115010,0.000193489,,,,,,,
1736401563.882041,-0.880734227,-0.024913637,,81.041000000,0.097736440,0.019434698,-0.148871350,0.000742067,0.400368792,-0.000148086,-1.546340738,-0.000330844,-0.248116192,0.000138142,,,,,,,
1736401563.884632,-0.880745418,-0.024567122,,81.042000000,0.097691627,-0.026738200,-0.148868685,0.004018771,0.400368105,-0.000615157,-1.546355568,-0.001010636,-0.248117107,0.000349677,,,,,,,
1736401563.888688,-0.880757360,-0.024971129,,81.043000000,0.097719451,-0.000282614,-0.148871822,0.001593349,0.400368279,-0.000219586,-1.546369117,-0.000408709,-0.248118390,0.000193490,,,,,,,
1736401563.895458,-0.880768840,-0.024913432,,81.044000000,0.097740536,0.019434603,-0.148873374,0.000742240,0.400368130,-0.000148060,-1.546383189,-0.000330839,-0.248119571,0.000138145,,,,,,,
1736401563.899639,-0.880780030,-0.024566849,,81.045000000,0.097695725,-0.026737022,-0.148870709,0.004018554,0.400367443,-0.000615124,-1.546398020,-0.001010618,-0.248120487,0.000349676,,,,,,,
1736401563.905958,-0.880791972,-0.024971079,,81.046000000,0.097723547,-0.000282611,-0.148873846,0.001593377,0.400367617,-0.000219552,-1.546411568,-0.000408690,-0.248121769,0.000193492,,,,,,,
1736401563.909032,-0.880803452,-0.024913227,,81.047000000,0.097744632,0.019434508,-0.148875398,0.000742414,0.400367468,-0.000148034,-1.546425641,-0.000330835,-0.248122951,0.000138149,,,,,,,
1736401563.912194,-0.880814643,-0.024566577,,81.048000000,0.097699822,-0.026735844,-0.148872733,0.004018337,0.400366781,-0.000615091,-1.546440471,-0.001010599,-0.248123866,0.000349675,,,,,,,
1736401563.914513,-0.880826585,-0.024971028,,81.049000000,0.097727644,-0.000282609,-0.148875870,0.001593405,0.400366955,-0.000219518,-1.546454020,-0.000408671,-0.248125149,0.000193493,,,,,,,
1736401563.917779,-0.880838064,-0.024913023,,81.050000000,0.097748728,0.019434413,-0.148877421,0.000742587,0.400366806,-0.000148008,-1.546468092,-0.000330830,-0.248126331,0.000138153,,,,,,,
1736401563.923093,0.000000000,,,1736401563.921305418,0.000000000,,0.000000000,,0.000000000,,0.000000000,,0.000000000,,,,,,,,
1736401563.923261,-0.880849255,-0.024566304,,81.051000000,0.097703919,-0.026734666,-0.148874757,0.004018119,0.400366119,-0.000615057,-1.546482923,-0.001010580,-0.248127246,0.000349674,,,,,,,
1736401563.929975,-0.880861197,-0.024970978,,81.052000000,0.097731740,-0.000282606,-0.148877894,0.001593433,0.400366294,-0.000219484,-1.546496471,-0.000408652,-0.248128529,0.000193495,,,,,,,
1736401563.930382,-0.880872676,-0.024912818,,81.053000000,0.097752825,0.019434319,-0.148879445,0.000742760,0.400366144,-0.000147982,-1.546510544,-0.000330826,-0.248129711,0.000138156,,,,,,,
1736401563.932510,-0.880883867,-0.024566032,,81.054000000,0.097708017,-0.026733487,-0.148876781,0.004017902,0.400365457,-0.000615024,-1.546525374,-0.001010562,-0.248130626,0.000349673,,,,,,,
1736401563.938811,-0.880895809,-0.024970927,,81.055000000,0.097735836,-0.000282603,-0.148879917,0.001593461,0.400365632,-0.000219451,-1.546538922,-0.000408633,-0.248131909,0.000193496,,,,,,,
1736401563.942560,-0.880907289,-0.024912613,,81.056000000,0.097756921,0.019434224,-0.148881469,0.000742934,0.400365482,-0.000147956,-1.546552995,-0.000330821,-0.248133091,0.000138160,,,,,,,
1736401563.945167,-0.880930422,-0.024970876,,81.058000000,0.097739932,-0.000282601,-0.148881941,0.001593490,0.400364970,-0.000219417,-1.546581374,-0.000408614,-0.248135288,0.000193497,,,,,,,
1736401563.947516,-0.880941901,-0.024912408,,81.059000000,0.097761017,0.019434130,-0.148883492,0.000743107,0.400364821,-0.000147930,-1.546595447,-0.000330817,-0.248136470,0.000138164,,,,,,,
1736401563.953375,-0.880953091,-0.024565486,,81.060000000,0.097716212,-0.026731131,-0.148880829,0.004017468,0.400364133,-0.000614958,-1.546610277,-0.001010525,-0.248137386,0.000349671,,,,,,,
1736401563.958879,-0.880965034,-0.024970825,,81.061000000,0.097744029,-0.000282598,-0.148883965,0.001593518,0.400364308,-0.000219383,-1.546623825,-0.000408595,-0.248138668,0.000193499,,,,,,,
1736401563.962739,-0.880976513,-0.024912203,,81.062000000,0.097765113,0.019434035,-0.148885516,0.000743281,0.400364159,-0.000147904,-1.546637898,-0.000330812,-0.248139850,0.000138167,,,,,,,
1736401563.965123,-0.880987704,-0.024565213,,81.063000000,0.097720309,-0.026729953,-0.148882853,0.004017250,0.400363471,-0.000614924,-1.546652728,-0.001010506,-0.248140765,0.000349670,,,,,,,
1736401563.969204,-0.880999647,-0.024970775,,81.064000000,0.097748125,-0.000282596,-0.148885989,0.001593546,0.400363646,-0.000219349,-1.546666277,-0.000408576,-0.248142048,0.000193500,,,,,,,
1736401563.970787,-0.881011126,-0.024911998,,81.065000000,0.097769209,0.019433941,-0.148887539,0.000743454,0.400363497,-0.000147878,-1.546680349,-0.000330808,-0.248143230,0.000138171,,,,,,,
1736401563.972603,-0.881022316,-0.024564940,,81.066000000,0.097724407,-0.026728775,-0.148884877,0.004017033,0.400362809,-0.000614891,-1.546695180,-0.001010488,-0.248144145,0.000349669,,,,,,,
1736401563.975196,-0.881034259,-0.024970724,,81.067000000,0.097752221,-0.000282593,-0.148888012,0.001593574,0.400362984,-0.000219315,-1.546708728,-0.000408557,-0.248145428,0.000193502,,,,,,,
1736401563.978976,-0.881045738,-0.024911793,,81.068000000,0.097773306,0.019433847,-0.148889563,0.000743628,0.400362835,-0.000147852,-1.546722801,-0.000330803,-0.248146610,0.000138175,,,,,,,
1736401563.982991,-0.881056928,-0.024564668,,81.069000000,0.097728504,-0.026727596,-0.148886901,0.004016816,0.400362147,-0.000614858,-1.546737631,-0.001010469,-0.248147525,0.000349668,,,,,,,
1736401563.987722,-0.881081900,-0.024971752,,81.070000000,0.097728222,-0.000282692,-0.148885312,0.001592281,0.400361928,-0.000219143,-1.546738040,-0.000408604,-0.248147331,0.000193483,,,,,,,
1736401563.991359,-0.881091314,-0.024913828,,81.071000000,0.097749074,0.019431159,-0.148886745,0.000742653,0.400361818,-0.000147684,-1.546749593,-0.000330739,-0.248148313,0.000138155,,,,,,,
1736401563.994319,-0.881100438,-0.024566899,,81.072000000,0.097704042,-0.026730824,-0.148883964,0.004015969,0.400361170,-0.000614698,-1.546761904,-0.001010359,-0.248149028,0.000349654,,,,,,,
1736401563.997082,-0.881110314,-0.024971573,,81.073000000,0.097731629,-0.000282599,-0.148886982,0.001592569,0.400361385,-0.000219162,-1.546772933,-0.000408551,-0.248150110,0.000193488,,,,,,,
1736401563.999249,-0.881119728,-0.024913330,,81.074000000,0.097752482,0.019431702,-0.148888414,0.000742866,0.400361275,-0.000147678,-1.546784486,-0.000330737,-0.248151092,0.000138159,,,,,,,
1736401564.006579,-0.881128852,-0.024566343,,81.075000000,0.097707451,-0.026729080,-0.148885634,0.004015802,0.400360627,-0.000614681,-1.546796797,-0.001010354,-0.248151806,0.000349653,,,,,,,
1736401564.007263,-0.881138729,-0.024971507,,81.076000000,0.097735036,-0.000282521,-0.148888651,0.001592675,0.400360841,-0.000219140,-1.546807827,-0.000408526,-0.248152889,0.000193489,,,,,,,
1736401564.013145,-0.881148142,-0.024912961,,81.077000000,0.097755889,0.019432014,-0.148890084,0.000743033,0.400360732,-0.000147669,-1.546819380,-0.000330737,-0.248153870,0.000138162,,,,,,,
1736401564.021354,-0.881157266,-0.024565914,,81.078000000,0.097710860,-0.026727578,-0.148887304,0.004015619,0.400360084,-0.000614660,-1.546831691,-0.001010346,-0.248154585,0.000349652,,,,,,,
1736401564.025594,0.000000000,,0.000000000,1736401564.024962902,0.000000000,,0.000000000,,0.000000000,,0.000000000,,0.000000000,,,,,,,,
1736401564.026237,-0.881167143,-0.024971458,,81.079000000,0.097738444,-0.000282479,-0.148890321,0.001592735,0.400360298,-0.000219115,-1.546842720,-0.000408506,-0.248155668,0.000193490,,,,,,,
1736401564.030037,-0.881176556,-0.024912690,,81.080000000,0.097759296,0.019432140,-0.148891753,0.000743186,0.400360189,-0.000147655,-1.546854274,-0.000330735,-0.248156649,0.000138165,,,,,,,
1736401564.034397,-0.881185680,-0.024565580,,81.081000000,0.097714268,-0.026726305,-0.148888974,0.004015434,0.400359541,-0.000614637,-1.546866584,-0.001010336,-0.248157364,0.000349652,,,,,,,
1736401564.038027,-0.881195558,-0.024971416,,81.082000000,0.097741851,-0.000282457,-0.148891991,0.001592773,0.400359755,-0.000219088,-1.546877614,-0.000408488,-0.248158446,0.000193491,,,,,,,
1736401564.045813,-0.881204971,-0.024912472,,81.083000000,0.097762704,0.019432161,-0.148893423,0.000743332,0.400359645,-0.000147637,-1.546889167,-0.000330732,-0.248159428,0.000138168,,,,,,,
1736401564.049434,-0.881214095,-0.024565296,,81.084000000,0.097717677,-0.026725163,-0.148890644,0.004015250,0.400358997,-0.000614612,-1.546901478,-0.001010323,-0.248160143,0.000349651,,,,,,,
1736401564.050074,-0.881223972,-0.024971375,,81.085000000,0.097745258,-0.000282445,-0.148893660,0.001592801,0.400359212,-0.000219061,-1.546912507,-0.000408471,-0.248161225,0.000193493,,,,,,,
1736401564.051937,-0.881233385,-0.024912281,,81.086000000,0.097766111,0.019432126,-0.148895092,0.000743475,0.400359102,-0.000147618,-1.546924061,-0.000330729,-0.248162207,0.000138171,,,,,,,
1736401564.054574,-0.881242509,-0.024565038,,81.087000000,0.097721085,-0.026724092,-0.148892313,0.004015065,0.400358454,-0.000614586,-1.546936372,-0.001010309,-0.248162921,0.000349650,,,,,,,
1736401564.058082,-0.881252387,-0.024971334,,81.088000000,0.097748665,-0.000282438,-0.148895330,0.001592824,0.400358669,-0.000219034,-1.546947401,-0.000408455,-0.248164004,0.000193494,,,,,,,
1736401564.066494,-0.881261799,-0.024912103,,81.089000000,0.097769518,0.019432063,-0.148896762,0.000743617,0.400358559,-0.000147597,-1.546958954,-0.000330725,-0.248164985,0.000138174,,,,,,,
1736401564.070504,-0.881270924,-0.024564793,,81.090000000,0.097724493,-0.026723059,-0.148893983,0.004014881,0.400357911,-0.000614559,-1.546971265,-0.001010295,-0.248165700,0.000349650,,,,,,,
1736401564.071047,-0.881280802,-0.024971292,,81.091000000,0.097752073,-0.000282435,-0.148896999,0.001592844,0.400358125,-0.000219006,-1.546982294,-0.000408439,-0.248166782,0.000193495,,,,,,,
1736401564.073600,-0.881290214,-0.024911931,,81.092000000,0.097772925,0.019431984,-0.148898431,0.000743757,0.400358016,-0.000147576,-1.546993848,-0.000330722,-0.248167764,0.000138177,,,,,,,
1736401564.075324,-0.881299338,-0.024564556,,81.093000000,0.097727902,-0.026722046,-0.148895653,0.004014697,0.400357368,-0.000614532,-1.547006159,-0.001010280,-0.248168479,0.000349649,,,,,,,
1736401564.078078,-0.881309216,-0.024971250,,81.094000000,0.097755480,-0.000282432,-0.148898669,0.001592864,0.400357582,-0.000218978,-1.547017188,-0.000408424,-0.248169561,0.000193496,,,,,,,
1736401564.082031,-0.881318628,-0.024911763,,81.095000000,0.097776332,0.019431897,-0.148900101,0.000743897,0.400357473,-0.000147555,-1.547028741,-0.000330718,-0.248170543,0.000138180,,,,,,,
1736401564.086661,-0.881327752,-0.024564322,,81.096000000,0.097731310,-0.026721044,-0.148897323,0.004014513,0.400356825,-0.000614505,-1.547041052,-0.001010265,-0.248171257,0.000349648,,,,,,,
1736401564.089339,-0.881337631,-0.024971208,,81.097000000,0.097758887,-0.000282430,-0.148900339,0.001592884,0.400357039,-0.000218950,-1.547052081,-0.000408408,-0.248172340,0.000193497,,,,,,,
1736401564.093541,-0.881347043,-0.024911597,,81.098000000,0.097779740,0.019431806,-0.148901770,0.000744037,0.400356929,-0.000147533,-1.547063635,-0.000330714,-0.248173321,0.000138183,,,,,,,
1736401564.094092,-0.881356167,-0.024564090,,81.099000000,0.097734718,-0.026720049,-0.148898993,0.004014330,0.400356282,-0.000614479,-1.547075946,-0.001010251,-0.248174036,0.000349647,,,,,,,
1736401564.098353,-0.881366045,-0.024971166,,81.100000000,0.097762294,-0.000282429,-0.148902008,0.001592903,0.400356496,-0.000218923,-1.547086975,-0.000408392,-0.248175119,0.000193498,,,,,,,
1736401564.102338,-0.881375457,-0.024911431,,81.101000000,0.097783147,0.019431713,-0.148903440,0.000744177,0.400356386,-0.000147512,-1.547098528,-0.000330710,-0.248176100,0.000138186,,,,,,,
1736401564.106287,-0.881384581,-0.024563859,,81.102000000,0.097738126,-0.026719057,-0.148900663,0.004014146,0.400355738,-0.000614452,-1.547110839,-0.001010236,-0.248176815,0.000349646,,,,,,,
1736401564.108448,-0.881394460,-0.024971123,,81.103000000,0.097765702,-0.000282428,-0.148903678,0.001592923,0.400355953,-0.000218895,-1.547121868,-0.000408377,-0.248177897,0.000193499,,,,,,,
1736401564.110966,-0.881403872,-0.024911266,,81.104000000,0.097786554,0.019431619,-0.148905109,0.000744317,0.400355843,-0.000147490,-1.547133422,-0.000330706,-0.248178879,0.000138189,,,,,,,
1736401564.119662,-0.881412995,-0.024563629,,81.105000000,0.097741535,-0.026718068,-0.148902332,0.004013963,0.400355195,-0.000614425,-1.547145733,-0.001010221,-0.248179594,0.000349646,,,,,,,
1736401564.119876,-0.881441410,-0.024563399,,81.108000000,0.097744943,-0.026717080,-0.148904002,0.004013780,0.400354652,-0.000614397,-1.547180626,-0.001010205,-0.248182372,0.000349645,,,,,,,
1736401564.123359,0.000000000,,0.000000000,1736401564.121284008,0.000000000,,0.000000000,,0.000000000,,0.000000000,,0.000000000,,,,,,,,
1736401564.123615,-0.881451289,-0.024971037,,81.109000000,0.097772516,-0.000282426,-0.148907017,0.001592962,0.400354866,-0.000218839,-1.547191656,-0.000408345,-0.248183455,0.000193502,,,,,,,
1736401564.124895,-0.881460701,-0.024910935,,81.110000000,0.097793368,0.019431431,-0.148908448,0.000744597,0.400354757,-0.000147447,-1.547203209,-0.000330699,-0.248184436,0.000138195,,,,,,,
1736401564.127587,-0.881469824,-0.024563169,,81.111000000,0.097748351,-0.026716093,-0.148905672,0.004013598,0.400354109,-0.000614370,-1.547215520,-0.001010190,-0.248185151,0.000349644,,,,,,,
1736401564.129775,-0.881479704,-0.024970994,,81.112000000,0.097775923,-0.000282425,-0.148908687,0.001592982,0.400354323,-0.000218812,-1.547226549,-0.000408330,-0.248186233,0.000193503,,,,,,,
1736401564.133687,-0.881489115,-0.024910769,,81.113000000,0.097796775,0.019431338,-0.148910118,0.000744737,0.400354213,-0.000147426,-1.547238103,-0.000330695,-0.248187215,0.000138198,,,,,,,
1736401564.139241,-0.881498239,-0.024562939,,81.114000000,0.097751759,-0.026715107,-0.148907342,0.004013415,0.400353566,-0.000614343,-1.547250413,-0.001010175,-0.248187930,0.000349643,,,,,,,
1736401564.142507,-0.881508118,-0.024970951,,81.115000000,0.097779331,-0.000282424,-0.148910356,0.001593003,0.400353780,-0.000218784,-1.547261443,-0.000408314,-0.248189012,0.000193504,,,,,,,
1736401564.149281,-0.881517529,-0.024910603,,81.116000000,0.097800182,0.019431245,-0.148911787,0.000744877,0.400353670,-0.000147404,-1.547272996,-0.000330691,-0.248189994,0.000138201,,,,,,,
1736401564.154982,-0.881526653,-0.024562710,,81.117000000,0.097755168,-0.026714122,-0.148909012,0.004013233,0.400353022,-0.000614316,-1.547285307,-0.001010160,-0.248190708,0.000349642,,,,,,,
1736401564.155056,-0.881536533,-0.024970907,,81.118000000,0.097782738,-0.000282423,-0.148912026,0.001593023,0.400353237,-0.000218756,-1.547296336,-0.000408298,-0.248191791,0.000193505,,,,,,,
1736401564.157324,-0.881545944,-0.024910437,,81.119000000,0.097803590,0.019431153,-0.148913457,0.000745018,0.400353127,-0.000147383,-1.547307890,-0.000330687,-0.248192772,0.000138204,,,,,,,
1736401564.159192,-0.881555067,-0.024562480,,81.120000000,0.097758576,-0.026713137,-0.148910682,0.004013050,0.400352479,-0.000614289,-1.547320200,-0.001010145,-0.248193487,0.000349642,,,,,,,
1736401564.161461,-0.881564947,-0.024970864,,81.121000000,0.097786145,-0.000282422,-0.148913696,0.001593043,0.400352694,-0.000218729,-1.547331230,-0.000408283,-0.248194569,0.000193506,,,,,,,
1736401564.166168,-0.881574358,-0.024910271,,81.122000000,0.097806997,0.019431061,-0.148915126,0.000745158,0.400352584,-0.000147361,-1.547342783,-0.000330683,-0.248195551,0.000138207,,,,,,,
1736401564.167973,-0.881583482,-0.024562250,,81.123000000,0.097761984,-0.026712153,-0.148912351,0.004012868,0.400351936,-0.000614262,-1.547355094,-0.001010130,-0.248196266,0.000349641,,,,,,,
1736401564.170831,-0.881593362,-0.024970821,,81.124000000,0.097789552,-0.000282421,-0.148915365,0.001593064,0.400352150,-0.000218701,-1.547366123,-0.000408267,-0.248197348,0.000193507,,,,,,,
1736401564.172228,-0.881602773,-0.024910105,,81.125000000,0.097810404,0.019430970,-0.148916796,0.000745299,0.400352041,-0.000147340,-1.547377677,-0.000330680,-0.248198330,0.000138210,,,,,,,
1736401564.174280,-0.881611896,-0.024562021,,81.126000000,0.097765392,-0.026711169,-0.148914021,0.004012686,0.400351393,-0.000614235,-1.547389988,-0.001010115,-0.248199045,0.000349640,,,,,,,
1736401564.176218,-0.881621776,-0.024970777,,81.127000000,0.097792960,-0.000282420,-0.148917035,0.001593085,0.400351607,-0.000218673,-1.547401017,-0.000408251,-0.248200127,0.000193509,,,,,,,
1736401564.178351,-0.881631187,-0.024909938,,81.128000000,0.097813811,0.019430879,-0.148918465,0.000745439,0.400351497,-0.000147319,-1.547412570,-0.000330676,-0.248201108,0.000138213,,,,,,,
1736401564.180146,-0.881640310,-0.024561791,,81.129000000,0.097768800,-0.026710185,-0.148915691,0.004012505,0.400350850,-0.000614208,-1.547424881,-0.001010100,-0.248201823,0.000349639,,,,,,,
1736401564.181392,-0.881650191,-0.024970734,,81.130000000,0.097796367,-0.000282419,-0.148918705,0.001593106,0.400351064,-0.000218646,-1.547435910,-0.000408236,-0.248202906,0.000193510,,,,,,,
1736401564.191098,-0.881659602,-0.024909771,,81.131000000,0.097817218,0.019430788,-0.148920135,0.000745580,0.400350954,-0.000147297,-1.547447464,-0.000330672,-0.248203887,0.000138216,,,,,,,
1736401564.201289,-0.881668725,-0.024561562,,81.132000000,0.097772209,-0.026709202,-0.148917361,0.004012323,0.400350306,-0.000614181,-1.547459775,-0.001010085,-0.248204602,0.000349638,,,,,,,
1736401564.211506,-0.881678605,-0.024970690,,81.133000000,0.097799774,-0.000282418,-0.148920374,0.001593127,0.400350521,-0.000218618,-1.547470804,-0.000408220,-0.248205684,0.000193511,,,,,,,
1736401564.212997,-0.881688016,-0.024909604,,81.134000000,0.097820625,0.019430698,-0.148921804,0.000745721,0.400350411,-0.000147276,-1.547482357,-0.000330668,-0.248206666,0.000138220,,,,,,,
1736401564.219413,-0.881697139,-0.024561332,,81.135000000,0.097775617,-0.026708219,-0.148919031,0.004012141,0.400349763,-0.000614154,-1.547494668,-0.001010070,-0.248207381,0.000349638,,,,,,,
1736401564.225735,-0.881707020,-0.024970647,,81.136000000,0.097803181,-0.000282417,-0.148922044,0.001593148,0.400349978,-0.000218590,-1.547505697,-0.000408204,-0.248208463,0.000193512,,,,,,,
1736401564.237171,-0.881716430,-0.024909437,,81.137000000,0.097824033,0.019430609,-0.148923474,0.000745862,0.400349868,-0.000147254,-1.547517251,-0.000330664,-0.248209445,0.000138223,,,,,,,
1736401564.237556,0.000000000,,0.000000000,1736401564.236263990,0.000000000,,0.000000000,,0.000000000,,0.000000000,,0.000000000,,,,,,,,
1736401564.240956,-0.881725554,-0.024561103,,81.138000000,0.097779025,-0.026707236,-0.148920701,0.004011960,0.400349220,-0.000614127,-1.547529562,-0.001010055,-0.248210159,0.000349637,,,,,,,
1736401564.247938,-0.881735435,-0.024970603,,81.139000000,0.097806589,-0.000282415,-0.148923713,0.001593170,0.400349434,-0.000218563,-1.547540591,-0.000408188,-0.248211242,0.000193513,,,,,,,
1736401564.252477,-0.881744845,-0.024909270,,81.140000000,0.097827440,0.019430520,-0.148925143,0.000746003,0.400349325,-0.000147233,-1.547552145,-0.000330661,-0.248212223,0.000138226,,,,,,,
1736401564.260823,-0.881753968,-0.024560873,,81.141000000,0.097782433,-0.026706254,-0.148922370,0.004011779,0.400348677,-0.000614100,-1.547564455,-0.001010040,-0.248212938,0.000349636,,,,,,,
1736401564.266886,-0.881763849,-0.024970560,,81.142000000,0.097809996,-0.000282414,-0.148925383,0.001593191,0.400348891,-0.000218535,-1.547575484,-0.000408173,-0.248214020,0.000193514,,,,,,,
1736401564.269196,-0.881773259,-0.024909103,,81.143000000,0.097830847,0.019430431,-0.148926813,0.000746144,0.400348781,-0.000147212,-1.547587038,-0.000330657,-0.248215002,0.000138229,,,,,,,
1736401564.271637,-0.881782382,-0.024560644,,81.144000000,0.097785842,-0.026705272,-0.148924040,0.004011597,0.400348134,-0.000614073,-1.547599349,-0.001010024,-0.248215717,0.000349635,,,,,,,
1736401564.275925,-0.881792264,-0.024970516,,81.145000000,0.097813403,-0.000282413,-0.148927053,0.001593213,0.400348348,-0.000218508,-1.547610378,-0.000408157,-0.248216799,0.000193516,,,,,,,
1736401564.285429,-0.881801674,-0.024908935,,81.146000000,0.097834254,0.019430343,-0.148928482,0.000746285,0.400348238,-0.000147190,-1.547621932,-0.000330653,-0.248217781,0.000138232,,,,,,,
1736401564.290174,-0.881820678,-0.024970472,,81.148000000,0.097816810,-0.000282412,-0.148928722,0.001593234,0.400347805,-0.000218480,-1.547645272,-0.000408141,-0.248219578,0.000193517,,,,,,,
1736401564.293467,-0.881830088,-0.024908767,,81.149000000,0.097837661,0.019430255,-0.148930152,0.000746426,0.400347695,-0.000147169,-1.547656825,-0.000330649,-0.248220559,0.000138235,,,,,,,
1736401564.295779,-0.881839211,-0.024560185,,81.150000000,0.097792658,-0.026703308,-0.148927380,0.004011235,0.400347047,-0.000614019,-1.547669136,-0.001009994,-0.248221274,0.000349634,,,,,,,
1736401564.299850,-0.881849093,-0.024970429,,81.151000000,0.097820218,-0.000282410,-0.148930392,0.001593256,0.400347262,-0.000218453,-1.547680165,-0.000408125,-0.248222357,0.000193518,,,,,,,
1736401564.307289,-0.881858503,-0.024908599,,81.152000000,0.097841068,0.019430168,-0.148931821,0.000746567,0.400347152,-0.000147148,-1.547691719,-0.000330645,-0.248223338,0.000138238,,,,,,,
1736401564.310182,-0.881867625,-0.024559956,,81.153000000,0.097796066,-0.026702327,-0.148929050,0.004011055,0.400346504,-0.000613992,-1.547704029,-0.001009979,-0.248224053,0.000349633,,,,,,,
1736401564.314652,-0.881877507,-0.024970385,,81.154000000,0.097823625,-0.000282409,-0.148932062,0.001593278,0.400346718,-0.000218425,-1.547715059,-0.000408109,-0.248225135,0.000193519,,,,,,,
1736401564.317063,-0.881886917,-0.024908431,,81.155000000,0.097844475,0.019430081,-0.148933491,0.000746708,0.400346609,-0.000147126,-1.547726612,-0.000330641,-0.248226117,0.000138241,,,,,,,
1736401564.320423,-0.881896040,-0.024559726,,81.156000000,0.097799474,-0.026701346,-0.148930720,0.004010874,0.400345961,-0.000613964,-1.547738923,-0.001009964,-0.248226832,0.000349632,,,,,,,
1736401564.324205,0.000000000,,0.000000000,1736401564.322016001,0.000000000,,0.000000000,,0.000000000,,0.000000000,,0.000000000,,,,,,,,
1736401564.325167,-0.881905922,-0.024970341,,81.157000000,0.097827032,-0.000282408,-0.148933731,0.001593300,0.400346175,-0.000218398,-1.547749952,-0.000408094,-0.248227914,0.000193520,,,,,,,
1736401564.328983,-0.881915332,-0.024908263,,81.158000000,0.097847883,0.019429994,-0.148935160,0.000746850,0.400346065,-0.000147105,-1.547761506,-0.000330638,-0.248228896,0.000138244,,,,,,,
1736401564.332292,-0.881924454,-0.024559497,,81.159000000,0.097802883,-0.026700365,-0.148932389,0.004010693,0.400345418,-0.000613937,-1.547773816,-0.001009949,-0.248229610,0.000349631,,,,,,,
1736401564.333635,-0.881934337,-0.024970297,,81.160000000,0.097830439,-0.000282406,-0.148935401,0.001593322,0.400345632,-0.000218370,-1.547784846,-0.000408078,-0.248230693,0.000193521,,,,,,,
1736401564.335445,-0.881943746,-0.024908095,,81.161000000,0.097851290,0.019429908,-0.148936830,0.000746991,0.400345522,-0.000147084,-1.547796399,-0.000330634,-0.248231674,0.000138247,,,,,,,
1736401564.339661,-0.881952869,-0.024559267,,81.162000000,0.097806291,-0.026699384,-0.148934059,0.004010513,0.400344874,-0.000613910,-1.547808710,-0.001009934,-0.248232389,0.000349630,,,,,,,
1736401564.343551,-0.881962751,-0.024970253,,81.163000000,0.097833847,-0.000282405,-0.148937070,0.001593344,0.400345089,-0.000218343,-1.547819739,-0.000408062,-0.248233471,0.000193523,,,,,,,
1736401564.346009,-0.881972160,-0.024907927,,81.164000000,0.097854697,0.019429822,-0.148938499,0.000747133,0.400344979,-0.000147062,-1.547831293,-0.000330630,-0.248234453,0.000138250,,,,,,,
1736401564.348483,-0.881981283,-0.024559038,,81.165000000,0.097809699,-0.026698404,-0.148935729,0.004010332,0.400344331,-0.000613883,-1.547843604,-0.001009919,-0.248235168,0.000349630,,,,,,,
1736401564.351626,-0.881991166,-0.024970209,,81.166000000,0.097837254,-0.000282403,-0.148938740,0.001593366,0.400344546,-0.000218315,-1.547854633,-0.000408046,-0.248236250,0.000193524,,,,,,,
1736401564.354470,-0.882000575,-0.024907758,,81.167000000,0.097858104,0.019429736,-0.148940169,0.000747274,0.400344436,-0.000147041,-1.547866186,-0.000330626,-0.248237232,0.000138253,,,,,,,
1736401564.357850,-0.882009697,-0.024558808,,81.168000000,0.097813107,-0.026697424,-0.148937399,0.004010152,0.400343788,-0.000613856,-1.547878497,-0.001009903,-0.248237947,0.000349629,,,,,,,
1736401564.362439,-0.882019580,-0.024970165,,81.169000000,0.097840661,-0.000282402,-0.148940410,0.001593388,0.400344002,-0.000218288,-1.547889526,-0.000408030,-0.248239029,0.000193525,,,,,,,
1736401564.363884,-0.882028989,-0.024907589,,81.170000000,0.097861511,0.019429651,-0.148941838,0.000747416,0.400343893,-0.000147020,-1.547901080,-0.000330622,-0.248240010,0.000138256,,,,,,,
1736401564.366518,-0.882038112,-0.024558579,,81.171000000,0.097816516,-0.026696444,-0.148939069,0.004009972,0.400343245,-0.000613829,-1.547913391,-0.001009888,-0.248240725,0.000349628,,,,,,,
1736401564.368904,-0.882047995,-0.024970121,,81.172000000,0.097844068,-0.000282401,-0.148942079,0.001593411,0.400343459,-0.000218260,-1.547924420,-0.000408014,-0.248241808,0.000193526,,,,,,,
1736401564.371345,-0.882057404,-0.024907421,,81.173000000,0.097864918,0.019429566,-0.148943508,0.000747558,0.400343349,-0.000146999,-1.547935974,-0.000330619,-0.248242789,0.000138259,,,,,,,
1736401564.375258,-0.882066526,-0.024558350,,81.174000000,0.097819924,-0.026695464,-0.148940739,0.004009791,0.400342702,-0.000613802,-1.547948284,-0.001009873,-0.248243504,0.000349627,,,,,,,
1736401564.378042,-0.882076409,-0.024970077,,81.175000000,0.097847476,-0.000282399,-0.148943749,0.001593433,0.400342916,-0.000218233,-1.547959313,-0.000407999,-0.248244586,0.000193527,,,,,,,
1736401564.381631,-0.882085818,-0.024907252,,81.176000000,0.097868326,0.019429481,-0.148945177,0.000747699,0.400342806,-0.000146977,-1.547970867,-0.000330615,-0.248245568,0.000138262,,,,,,,
1736401564.383646,-0.882094940,-0.024558120,,81.177000000,0.097823332,-0.026694484,-0.148942408,0.004009611,0.400342158,-0.000613775,-1.547983178,-0.001009858,-0.248246283,0.000349627,,,,,,,
1736401564.387015,-0.882104824,-0.024970033,,81.178000000,0.097850883,-0.000282398,-0.148945419,0.001593456,0.400342373,-0.000218205,-1.547994207,-0.000407983,-0.248247365,0.000193528,,,,,,,
1736401564.390348,-0.882114233,-0.024907083,,81.179000000,0.097871733,0.019429397,-0.148946847,0.000747841,0.400342263,-0.000146956,-1.548005761,-0.000330611,-0.248248347,0.000138265,,,,,,,
1736401564.394578,-0.882123355,-0.024557891,,81.180000000,0.097826740,-0.026693505,-0.148944078,0.004009431,0.400341615,-0.000613748,-1.548018071,-0.001009843,-0.248249061,0.000349626,,,,,,,
1736401564.400097,-0.882133239,-0.024969989,,81.181000000,0.097854290,-0.000282396,-0.148947088,0.001593478,0.400341830,-0.000218178,-1.548029100,-0.000407967,-0.248250144,0.000193530,,,,,,,
1736401564.402823,-0.882142647,-0.024906914,,81.182000000,0.097875140,0.019429312,-0.148948516,0.000747983,0.400341720,-0.000146935,-1.548040654,-0.000330607,-0.248251125,0.000138268,,,,,,,
1736401564.406041,-0.882151769,-0.024557661,,81.183000000,0.097830148,-0.026692526,-0.148945748,0.004009252,0.400341072,-0.000613721,-1.548052965,-0.001009828,-0.248251840,0.000349625,,,,,,,
1736401564.409488,-0.882161653,-0.024969945,,81.184000000,0.097857697,-0.000282395,-0.148948758,0.001593501,0.400341286,-0.000218150,-1.548063994,-0.000407951,-0.248252922,0.000193531,,,,,,,
1736401564.409602,-0.882171062,-0.024906744,,81.185000000,0.097878547,0.019429229,-0.148950186,0.000748125,0.400341177,-0.000146914,-1.548075548,-0.000330603,-0.248253904,0.000138271,,,,,,,
1736401564.411519,-0.882180184,-0.024557432,,81.186000000,0.097833557,-0.026691547,-0.148947418,0.004009072,0.400340529,-0.000613694,-1.548087858,-0.001009813,-0.248254619,0.000349624,,,,,,,
1736401564.415794,-0.882190068,-0.024969901,,81.187000000,0.097861105,-0.000282393,-0.148950427,0.001593524,0.400340743,-0.000218123,-1.548098888,-0.000407935,-0.248255701,0.000193532,,,,,,,
1736401564.419231,-0.882199476,-0.024906575,,81.188000000,0.097881954,0.019429145,-0.148951855,0.000748267,0.400340633,-0.000146893,-1.548110441,-0.000330600,-0.248256683,0.000138274,,,,,,,
1736401564.422346,0.000000000,,0.000000000,1736401564.421481133,0.000000000,,0.000000000,,0.000000000,,0.000000000,,0.000000000,,,,,,,,
1736401564.423298,-0.882208598,-0.024557202,,81.189000000,0.097836965,-0.026690568,-0.148949088,0.004008892,0.400339986,-0.000613667,-1.548122752,-0.001009797,-0.248257398,0.000349623,,,,,,,
1736401564.424448,-0.882218482,-0.024969857,,81.190000000,0.097864512,-0.000282391,-0.148952097,0.001593547,0.400340200,-0.000218095,-1.548133781,-0.000407919,-0.248258480,0.000193533,,,,,,,
1736401564.425892,-0.882227890,-0.024906406,,81.191000000,0.097885361,0.019429061,-0.148953525,0.000748409,0.400340090,-0.000146871,-1.548145335,-0.000330596,-0.248259461,0.000138277,,,,,,,
1736401564.427863,-0.882237012,-0.024556973,,81.192000000,0.097840373,-0.026689589,-0.148950758,0.004008712,0.400339443,-0.000613640,-1.548157645,-0.001009782,-0.248260176,0.000349623,,,,,,,
1736401564.431456,-0.882246897,-0.024969812,,81.193000000,0.097867919,-0.000282390,-0.148953767,0.001593569,0.400339657,-0.000218068,-1.548168675,-0.000407904,-0.248261259,0.000193534,,,,,,,
1736401564.436069,-0.882256305,-0.024906236,,81.194000000,0.097888769,0.019428978,-0.148955194,0.000748551,0.400339547,-0.000146850,-1.548180228,-0.000330592,-0.248262240,0.000138280,,,,,,,
1736401564.438170,-0.882265427,-0.024556743,,81.195000000,0.097843781,-0.026688610,-0.148952427,0.004008533,0.400338899,-0.000613612,-1.548192539,-0.001009767,-0.248262955,0.000349622,,,,,,,
1736401564.441271,-0.882275311,-0.024969768,,81.196000000,0.097871326,-0.000282388,-0.148955436,0.001593592,0.400339114,-0.000218041,-1.548203568,-0.000407888,-0.248264037,0.000193535,,,,,,,
1736401564.443915,-0.882284719,-0.024906067,,81.197000000,0.097892176,0.019428895,-0.148956864,0.000748693,0.400339004,-0.000146829,-1.548215122,-0.000330588,-0.248265019,0.000138283,,,,,,,
1736401564.448613,-0.882293841,-0.024556513,,81.198000000,0.097847190,-0.026687631,-0.148954097,0.004008353,0.400338356,-0.000613585,-1.548227432,-0.001009752,-0.248265734,0.000349621,,,,,,,
1736401564.452060,-0.882303726,-0.024969724,,81.199000000,0.097874734,-0.000282387,-0.148957106,0.001593615,0.400338571,-0.000218013,-1.548238462,-0.000407872,-0.248266816,0.000193537,,,,,,,
1736401564.453645,-0.882313134,-0.024905897,,81.200000000,0.097895583,0.019428812,-0.148958533,0.000748835,0.400338461,-0.000146808,-1.548250016,-0.000330584,-0.248267797,0.000138286,,,,,,,
1736401564.456759,-0.882322256,-0.024556284,,81.201000000,0.097850598,-0.026686653,-0.148955767,0.004008174,0.400337813,-0.000613558,-1.548262326,-0.001009737,-0.248268512,0.000349620,,,,,,,
1736401564.459131,-0.882332140,-0.024969679,,81.202000000,0.097878141,-0.000282385,-0.148958776,0.001593638,0.400338027,-0.000217986,-1.548273355,-0.000407856,-0.248269595,0.000193538,,,,,,,
1736401564.461160,-0.882341548,-0.024905727,,81.203000000,0.097898990,0.019428730,-0.148960203,0.000748977,0.400337917,-0.000146787,-1.548284909,-0.000330581,-0.248270576,0.000138289,,,,,,,
1736401564.462791,-0.882350670,-0.024556054,,81.204000000,0.097854006,-0.026685675,-0.148957437,0.004007994,0.400337270,-0.000613531,-1.548297220,-0.001009722,-0.248271291,0.000349619,,,,,,,
1736401564.465262,-0.882360555,-0.024969635,,81.205000000,0.097881548,-0.000282383,-0.148960445,0.001593661,0.400337484,-0.000217958,-1.548308249,-0.000407840,-0.248272373,0.000193539,,,,,,,
1736401564.470700,-0.882369963,-0.024905557,,81.206000000,0.097902397,0.019428648,-0.148961872,0.000749119,0.400337374,-0.000146765,-1.548319803,-0.000330577,-0.248273355,0.000138292,,,,,,,
1736401564.475874,-0.882379084,-0.024555825,,81.207000000,0.097857414,-0.026684697,-0.148959107,0.004007815,0.400336727,-0.000613504,-1.548332113,-0.001009706,-0.248274070,0.000349619,,,,,,,
1736401564.479093,-0.882398377,-0.024905387,,81.209000000,0.097905804,0.019428565,-0.148963542,0.000749261,0.400336831,-0.000146744,-1.548354696,-0.000330573,-0.248276134,0.000138295,,,,,,,
1736401564.483933,-0.882407499,-0.024555595,,81.210000000,0.097860822,-0.026683718,-0.148960777,0.004007636,0.400336183,-0.000613477,-1.548367007,-0.001009691,-0.248276849,0.000349618,,,,,,,
1736401564.487464,-0.882417384,-0.024969546,,81.211000000,0.097888362,-0.000282380,-0.148963784,0.001593708,0.400336398,-0.000217903,-1.548378036,-0.000407808,-0.248277931,0.000193541,,,,,,,
1736401564.488385,-0.882426791,-0.024905217,,81.212000000,0.097909212,0.019428484,-0.148965211,0.000749404,0.400336288,-0.000146723,-1.548389590,-0.000330569,-0.248278912,0.000138298,,,,,,,
1736401564.491802,-0.882435913,-0.024555365,,81.213000000,0.097864231,-0.026682740,-0.148962446,0.004007457,0.400335640,-0.000613450,-1.548401900,-0.001009676,-0.248279627,0.000349617,,,,,,,
1736401564.497608,-0.882445799,-0.024969502,,81.214000000,0.097891770,-0.000282379,-0.148965454,0.001593731,0.400335855,-0.000217876,-1.548412929,-0.000407793,-0.248280710,0.000193542,,,,,,,
1736401564.500144,-0.882455206,-0.024905047,,81.215000000,0.097912619,0.019428402,-0.148966881,0.000749546,0.400335745,-0.000146702,-1.548424483,-0.000330565,-0.248281691,0.000138301,,,,,,,
1736401564.501921,-0.882464327,-0.024555136,,81.216000000,0.097867639,-0.026681763,-0.148964116,0.004007278,0.400335097,-0.000613423,-1.548436794,-0.001009661,-0.248282406,0.000349616,,,,,,,
1736401564.503981,-0.882474213,-0.024969457,,81.217000000,0.097895177,-0.000282377,-0.148967124,0.001593754,0.400335311,-0.000217849,-1.548447823,-0.000407777,-0.248283488,0.000193544,,,,,,,
1736401564.505974,-0.882483620,-0.024904877,,81.218000000,0.097916026,0.019428320,-0.148968550,0.000749688,0.400335201,-0.000146681,-1.548459377,-0.000330562,-0.248284470,0.000138304,,,,,,,
1736401564.513619,-0.882492742,-0.024554906,,81.219000000,0.097871047,-0.026680785,-0.148965786,0.004007099,0.400334554,-0.000613396,-1.548471687,-0.001009646,-0.248285185,0.000349616,,,,,,,
1736401564.517290,-0.882502628,-0.024969412,,81.220000000,0.097898584,-0.000282375,-0.148968793,0.001593777,0.400334768,-0.000217821,-1.548482716,-0.000407761,-0.248286267,0.000193545,,,,,,,
1736401564.520802,0.000000000,,0.000000000,1736401564.520394087,0.000000000,,0.000000000,,0.000000000,,0.000000000,,0.000000000,,,,,,,,
1736401564.521829,-0.882512035,-0.024904706,,81.221000000,0.097919433,0.019428239,-0.148970220,0.000749830,0.400334658,-0.000146660,-1.548494270,-0.000330558,-0.248287248,0.000138307,,,,,,,
1736401564.524360,-0.882521156,-0.024554676,,81.222000000,0.097874455,-0.026679807,-0.148967456,0.004006920,0.400334011,-0.000613369,-1.548506581,-0.001009631,-0.248287963,0.000349615,,,,,,,
1736401564.529574,-0.882531042,-0.024969368,,81.223000000,0.097901991,-0.000282373,-0.148970463,0.001593801,0.400334225,-0.000217794,-1.548517610,-0.000407745,-0.248289046,0.000193546,,,,,,,
1736401564.536358,-0.882540449,-0.024904536,,81.224000000,0.097922840,0.019428158,-0.148971889,0.000749973,0.400334115,-0.000146639,-1.548529164,-0.000330554,-0.248290027,0.000138310,,,,,,,
1736401564.536449,-0.882549571,-0.024554446,,81.225000000,0.097877864,-0.026678829,-0.148969126,0.004006741,0.400333467,-0.000613342,-1.548541474,-0.001009615,-0.248290742,0.000349614,,,,,,,
1736401564.537157,-0.882559457,-0.024969323,,81.226000000,0.097905399,-0.000282372,-0.148972133,0.001593824,0.400333682,-0.000217766,-1.548552504,-0.000407729,-0.248291824,0.000193547,,,,,,,
1736401564.539202,-0.882568864,-0.024904366,,81.227000000,0.097926247,0.019428077,-0.148973559,0.000750115,0.400333572,-0.000146617,-1.548564057,-0.000330550,-0.248292806,0.000138313,,,,,,,
1736401564.543143,-0.882577985,-0.024554217,,81.228000000,0.097881272,-0.026677852,-0.148970796,0.004006562,0.400332924,-0.000613315,-1.548576368,-0.001009600,-0.248293521,0.000349613,,,,,,,
1736401564.547501,-0.882587872,-0.024969279,,81.229000000,0.097908806,-0.000282370,-0.148973802,0.001593847,0.400333139,-0.000217739,-1.548587397,-0.000407713,-0.248294603,0.000193548,,,,,,,
1736401564.549524,-0.882597278,-0.024904195,,81.230000000,0.097929654,0.019427996,-0.148975228,0.000750257,0.400333029,-0.000146596,-1.548598951,-0.000330547,-0.248295585,0.000138316,,,,,,,
1736401564.551865,-0.882606399,-0.024553987,,81.231000000,0.097884680,-0.026676874,-0.148972465,0.004006383,0.400332381,-0.000613287,-1.548611261,-0.001009585,-0.248296300,0.000349612,,,,,,,
1736401564.554207,-0.882616286,-0.024969234,,81.232000000,0.097912213,-0.000282368,-0.148975472,0.001593871,0.400332595,-0.000217712,-1.548622291,-0.000407697,-0.248297382,0.000193549,,,,,,,
1736401564.555521,-0.882625693,-0.024904025,,81.233000000,0.097933062,0.019427915,-0.148976898,0.000750400,0.400332485,-0.000146575,-1.548633845,-0.000330543,-0.248298363,0.000138319,,,,,,,
1736401564.557138,-0.882634814,-0.024553757,,81.234000000,0.097888088,-0.026675897,-0.148974135,0.004006204,0.400331838,-0.000613260,-1.548646155,-0.001009570,-0.248299078,0.000349612,,,,,,,
1736401564.559321,-0.882644701,-0.024969189,,81.235000000,0.097915620,-0.000282367,-0.148977141,0.001593894,0.400332052,-0.000217684,-1.548657184,-0.000407681,-0.248300161,0.000193551,,,,,,,
1736401564.561487,-0.882654107,-0.024903854,,81.236000000,0.097936469,0.019427834,-0.148978567,0.000750542,0.400331942,-0.000146554,-1.548668738,-0.000330539,-0.248301142,0.000138322,,,,,,,
1736401564.566255,-0.882663228,-0.024553527,,81.237000000,0.097891496,-0.026674920,-0.148975805,0.004006026,0.400331295,-0.000613233,-1.548681048,-0.001009555,-0.248301857,0.000349611,,,,,,,
1736401564.572589,-0.882673115,-0.024969144,,81.238000000,0.097919028,-0.000282365,-0.148978811,0.001593918,0.400331509,-0.000217657,-1.548692078,-0.000407666,-0.248302939,0.000193552,,,,,,,
1736401564.574863,-0.882691642,-0.024553297,,81.240000000,0.097894905,-0.026673943,-0.148977475,0.004005847,0.400330751,-0.000613206,-1.548715942,-0.001009539,-0.248304636,0.000349610,,,,,,,
1736401564.578600,-0.882701530,-0.024969100,,81.241000000,0.097922435,-0.000282363,-0.148980481,0.001593941,0.400330966,-0.000217629,-1.548726971,-0.000407650,-0.248305718,0.000193553,,,,,,,
1736401564.579263,-0.882710936,-0.024903512,,81.242000000,0.097943283,0.019427674,-0.148981906,0.000750827,0.400330856,-0.000146512,-1.548738525,-0.000330531,-0.248306699,0.000138329,,,,,,,
1736401564.582704,-0.882720057,-0.024553068,,81.243000000,0.097898313,-0.026672965,-0.148979145,0.004005668,0.400330208,-0.000613179,-1.548750836,-0.001009524,-0.248307414,0.000349609,,,,,,,
1736401564.587874,-0.882729944,-0.024969055,,81.244000000,0.097925842,-0.000282361,-0.148982150,0.001593965,0.400330423,-0.000217602,-1.548761865,-0.000407634,-0.248308497,0.000193554,,,,,,,
1736401564.589806,-0.882739350,-0.024903341,,81.245000000,0.097946690,0.019427594,-0.148983576,0.000750969,0.400330313,-0.000146491,-1.548773419,-0.000330528,-0.248309478,0.000138332,,,,,,,
1736401564.591785,-0.882748471,-0.024552838,,81.246000000,0.097901721,-0.026671988,-0.148980814,0.004005489,0.400329665,-0.000613152,-1.548785729,-0.001009509,-0.248310193,0.000349609,,,,,,,
1736401564.593563,-0.882758359,-0.024969010,,81.247000000,0.097929249,-0.000282359,-0.148983820,0.001593988,0.400329879,-0.000217575,-1.548796758,-0.000407618,-0.248311275,0.000193555,,,,,,,
1736401564.598111,-0.882767765,-0.024903170,,81.248000000,0.097950097,0.019427515,-0.148985245,0.000751112,0.400329769,-0.000146470,-1.548808312,-0.000330524,-0.248312257,0.000138335,,,,,,,
1736401564.600825,-0.882776886,-0.024552608,,81.249000000,0.097905129,-0.026671011,-0.148982484,0.004005310,0.400329122,-0.000613125,-1.548820623,-0.001009494,-0.248312972,0.000349608,,,,,,,
1736401564.603958,-0.882786773,-0.024968965,,81.250000000,0.097932657,-0.000282358,-0.148985490,0.001594011,0.400329336,-0.000217547,-1.548831652,-0.000407602,-0.248314054,0.000193556,,,,,,,
1736401564.605686,-0.882796179,-0.024902999,,81.251000000,0.097953505,0.019427436,-0.148986915,0.000751254,0.400329226,-0.000146448,-1.548843206,-0.000330520,-0.248315036,0.000138338,,,,,,,
1736401564.607568,-0.882805300,-0.024552378,,81.252000000,0.097908538,-0.026670033,-0.148984154,0.004005131,0.400328579,-0.000613098,-1.548855516,-0.001009479,-0.248315751,0.000349607,,,,,,,
1736401564.609571,-0.882815188,-0.024968921,,81.253000000,0.097936064,-0.000282356,-0.148987159,0.001594035,0.400328793,-0.000217520,-1.548866545,-0.000407586,-0.248316833,0.000193558,,,,,,,
1736401564.611062,-0.882824594,-0.024902828,,81.254000000,0.097956912,0.019427357,-0.148988584,0.000751396,0.400328683,-0.000146427,-1.548878099,-0.000330516,-0.248317814,0.000138341,,,,,,,
1736401564.612422,-0.882833714,-0.024552148,,81.255000000,0.097911946,-0.026669056,-0.148985824,0.004004953,0.400328035,-0.000613071,-1.548890410,-0.001009464,-0.248318529,0.000349606,,,,,,,
1736401564.615790,-0.882843603,-0.024968876,,81.256000000,0.097939471,-0.000282354,-0.148988829,0.001594058,0.400328250,-0.000217492,-1.548901439,-0.000407570,-0.248319612,0.000193559,,,,,,,
1736401564.618299,-0.882853008,-0.024902657,,81.257000000,0.097960319,0.019427278,-0.148990254,0.000751538,0.400328140,-0.000146406,-1.548912993,-0.000330512,-0.248320593,0.000138344,,,,,,,
1736401564.621665,0.000000000,,0.000000000,1736401564.621044874,0.000000000,,0.000000000,,0.000000000,,0.000000000,,0.000000000,,,,,,,,
1736401564.623729,-0.882862129,-0.024551917,,81.258000000,0.097915354,-0.026668079,-0.148987494,0.004004774,0.400327492,-0.000613044,-1.548925303,-0.001009448,-0.248321308,0.000349605,,,,,,,
1736401564.626274,-0.882872017,-0.024968831,,81.259000000,0.097942878,-0.000282352,-0.148990498,0.001594081,0.400327707,-0.000217465,-1.548936332,-0.000407555,-0.248322390,0.000193560,,,,,,,
1736401564.628353,-0.882881422,-0.024902485,,81.260000000,0.097963726,0.019427199,-0.148991923,0.000751681,0.400327597,-0.000146385,-1.548947887,-0.000330509,-0.248323372,0.000138347,,,,,,,
1736401564.629987,-0.882890543,-0.024551687,,81.261000000,0.097918762,-0.026667101,-0.148989164,0.004004595,0.400326949,-0.000613017,-1.548960197,-0.001009433,-0.248324087,0.000349605,,,,,,,
1736401564.632514,-0.882900432,-0.024968786,,81.262000000,0.097946286,-0.000282350,-0.148992168,0.001594105,0.400327163,-0.000217437,-1.548971226,-0.000407539,-0.248325169,0.000193561,,,,,,,
1736401564.637077,-0.882909837,-0.024902314,,81.263000000,0.097967133,0.019427120,-0.148993593,0.000751823,0.400327053,-0.000146365,-1.548982780,-0.000330504,-0.248326150,0.000138350,,,,,,,
1736401564.641269,-0.882918957,-0.024551457,,81.264000000,0.097922170,-0.026666124,-0.148990833,0.004004417,0.400326406,-0.000612989,-1.548995090,-0.001009418,-0.248326865,0.000349604,,,,,,,
1736401564.643790,-0.882928846,-0.024968741,,81.265000000,0.097949693,-0.000282348,-0.148993838,0.001594128,0.400326620,-0.000217410,-1.549006120,-0.000407523,-0.248327948,0.000193562,,,,,,,
1736401564.646084,-0.882938251,-0.024902142,,81.266000000,0.097970540,0.019427041,-0.148995262,0.000751967,0.400326510,-0.000146345,-1.549017674,-0.000330500,-0.248328929,0.000138353,,,,,,,
1736401564.647891,-0.882947372,-0.024551227,,81.267000000,0.097925579,-0.026665148,-0.148992503,0.004004238,0.400325863,-0.000612962,-1.549029984,-0.001009403,-0.248329644,0.000349603,,,,,,,
1736401564.649783,-0.882957261,-0.024968697,,81.268000000,0.097953100,-0.000282346,-0.148995507,0.001594152,0.400326077,-0.000217383,-1.549041013,-0.000407507,-0.248330726,0.000193564,,,,,,,
1736401564.651732,-0.882966666,-0.024901971,,81.269000000,0.097973948,0.019426961,-0.148996932,0.000752110,0.400325967,-0.000146324,-1.549052567,-0.000330496,-0.248331708,0.000138356,,,,,,,
1736401564.653812,-0.882975786,-0.024550997,,81.270000000,0.097928987,-0.026664171,-0.148994173,0.004004059,0.400325319,-0.000612935,-1.549064877,-0.001009388,-0.248332423,0.000349602,,,,,,,
1736401564.656663,-0.882985675,-0.024968652,,81.271000000,0.097956507,-0.000282344,-0.148997177,0.001594175,0.400325534,-0.000217355,-1.549075907,-0.000407491,-0.248333505,0.000193565,,,,,,,
1736401564.660060,-0.882995080,-0.024901799,,81.272000000,0.097977355,0.019426882,-0.148998601,0.000752253,0.400325424,-0.000146304,-1.549087461,-0.000330491,-0.248334487,0.000138359,,,,,,,
1736401564.662590,-0.883004201,-0.024550767,,81.273000000,0.097932395,-0.026663195,-0.148995843,0.004003881,0.400324776,-0.000612908,-1.549099771,-0.001009372,-0.248335202,0.000349602,,,,,,,
1736401564.665870,-0.883014090,-0.024968607,,81.274000000,0.097959915,-0.000282342,-0.148998847,0.001594199,0.400324991,-0.000217328,-1.549110800,-0.000407475,-0.248336284,0.000193566,,,,,,,
1736401564.670844,-0.883023495,-0.024901627,,81.275000000,0.097980762,0.019426803,-0.149000271,0.000752397,0.400324881,-0.000146284,-1.549122354,-0.000330487,-0.248337265,0.000138362,,,,,,,
1736401564.676166,-0.883032615,-0.024550537,,81.276000000,0.097935803,-0.026662219,-0.148997513,0.004003702,0.400324233,-0.000612881,-1.549134664,-0.001009357,-0.248337980,0.000349601,,,,,,,
1736401564.677573,-0.883042505,-0.024968562,,81.277000000,0.097963322,-0.000282340,-0.149000516,0.001594223,0.400324447,-0.000217300,-1.549145694,-0.000407459,-0.248339062,0.000193567,,,,,,,
1736401564.680574,-0.883051909,-0.024901456,,81.278000000,0.097984169,0.019426724,-0.149001941,0.000752540,0.400324337,-0.000146264,-1.549157248,-0.000330483,-0.248340044,0.000138365,,,,,,,
1736401564.686386,-0.883061029,-0.024550307,,81.279000000,0.097939212,-0.026661242,-0.148999183,0.004003524,0.400323690,-0.000612854,-1.549169558,-0.001009342,-0.248340759,0.000349600,,,,,,,
1736401564.690024,-0.883070919,-0.024968517,,81.280000000,0.097966729,-0.000282338,-0.149002186,0.001594246,0.400323904,-0.000217273,-1.549180587,-0.000407443,-0.248341841,0.000193568,,,,,,,
1736401564.692987,-0.883080324,-0.024901284,,81.281000000,0.097987576,0.019426646,-0.149003610,0.000752683,0.400323794,-0.000146244,-1.549192141,-0.000330478,-0.248342823,0.000138368,,,,,,,
1736401564.696241,-0.883089444,-0.024550077,,81.282000000,0.097942620,-0.026660266,-0.149000852,0.004003346,0.400323147,-0.000612827,-1.549204452,-0.001009327,-0.248343538,0.000349599,,,,,,,
1736401564.697588,-0.883099334,-0.024968471,,81.283000000,0.097970136,-0.000282336,-0.149003855,0.001594270,0.400323361,-0.000217246,-1.549215481,-0.000407428,-0.248344620,0.000193569,,,,,,,
1736401564.700901,-0.883108738,-0.024901112,,81.284000000,0.097990983,0.019426567,-0.149005280,0.000752827,0.400323251,-0.000146224,-1.549227035,-0.000330474,-0.248345601,0.000138371,,,,,,,
1736401564.705752,-0.883117858,-0.024549847,,81.285000000,0.097946028,-0.026659289,-0.149002522,0.004003167,0.400322604,-0.000612800,-1.549239345,-0.001009312,-0.248346316,0.000349598,,,,,,,
1736401564.709245,-0.883127748,-0.024968426,,81.286000000,0.097973544,-0.000282334,-0.149005525,0.001594293,0.400322818,-0.000217218,-1.549250374,-0.000407412,-0.248347399,0.000193571,,,,,,,
1736401564.712146,-0.883137152,-0.024900940,,81.287000000,0.097994391,0.019426488,-0.149006949,0.000752970,0.400322708,-0.000146204,-1.549261928,-0.000330470,-0.248348380,0.000138374,,,,,,,
1736401564.714085,-0.883146272,-0.024549616,,81.288000000,0.097949436,-0.026658313,-0.149004192,0.004002989,0.400322060,-0.000612773,-1.549274239,-0.001009296,-0.248349095,0.000349598,,,,,,,
1736401564.717310,-0.883156163,-0.024968381,,81.289000000,0.097976951,-0.000282332,-0.149007195,0.001594317,0.400322275,-0.000217191,-1.549285268,-0.000407396,-0.248350177,0.000193572,,,,,,,
1736401564.718688,-0.883165567,-0.024900768,,81.290000000,0.097997798,0.019426410,-0.149008619,0.000753113,0.400322165,-0.000146184,-1.549296822,-0.000330465,-0.248351159,0.000138377,,,,,,,
1736401564.720000,-0.883174687,-0.024549386,,81.291000000,0.097952844,-0.026657337,-0.149005862,0.004002811,0.400321517,-0.000612745,-1.549309132,-0.001009281,-0.248351874,0.000349597,,,,,,,
1736401564.721856,-0.883184577,-0.024968336,,81.292000000,0.097980358,-0.000282330,-0.149008864,0.001594341,0.400321732,-0.000217163,-1.549320161,-0.000407380,-0.248352956,0.000193573,,,,,,,
1736401564.723974,-0.883193981,-0.024900596,,81.293000000,0.098001205,0.019426331,-0.149010288,0.000753257,0.400321621,-0.000146163,-1.549331716,-0.000330461,-0.248353937,0.000138380,,,,,,,
1736401564.724327,0.000000000,,0.000000000,1736401564.722917318,0.000000000,,0.000000000,,0.000000000,,0.000000000,,0.000000000,,,,,,,,
1736401564.729699,-0.883203101,-0.024549156,,81.294000000,0.097956253,-0.026656360,-0.149007532,0.004002632,0.400320974,-0.000612718,-1.549344026,-0.001009266,-0.248354653,0.000349596,,,,,,,
1736401564.733184,-0.883212992,-0.024968291,,81.295000000,0.097983765,-0.000282328,-0.149010534,0.001594364,0.400321188,-0.000217136,-1.549355055,-0.000407364,-0.248355735,0.000193574,,,,,,,
1736401564.735605,-0.883222396,-0.024900424,,81.296000000,0.098004612,0.019426253,-0.149011958,0.000753400,0.400321078,-0.000146143,-1.549366609,-0.000330456,-0.248356716,0.000138383,,,,,,,
1736401564.737280,-0.883231516,-0.024548925,,81.297000000,0.097959661,-0.026655384,-0.149009202,0.004002454,0.400320431,-0.000612691,-1.549378919,-0.001009251,-0.248357431,0.000349595,,,,,,,
1736401564.739831,-0.883241406,-0.024968246,,81.298000000,0.097987173,-0.000282326,-0.149012204,0.001594388,0.400320645,-0.000217108,-1.549389948,-0.000407348,-0.248358513,0.000193575,,,,,,,
1736401564.741060,-0.883250810,-0.024900252,,81.299000000,0.098008019,0.019426175,-0.149013627,0.000753544,0.400320535,-0.000146123,-1.549401503,-0.000330452,-0.248359495,0.000138386,,,,,,,
1736401564.743639,-0.883259930,-0.024548695,,81.300000000,0.097963069,-0.026654408,-0.149010871,0.004002276,0.400319888,-0.000612664,-1.549413813,-0.001009235,-0.248360210,0.000349595,,,,,,,
1736401564.745522,-0.883269821,-0.024968200,,81.301000000,0.097990580,-0.000282324,-0.149013873,0.001594412,0.400320102,-0.000217081,-1.549424842,-0.000407332,-0.248361292,0.000193576,,,,,,,
1736401564.747112,-0.883279225,-0.024900080,,81.302000000,0.098011426,0.019426096,-0.149015297,0.000753687,0.400319992,-0.000146103,-1.549436396,-0.000330448,-0.248362274,0.000138389,,,,,,,
1736401564.751481,-0.883288344,-0.024548465,,81.303000000,0.097966477,-0.026653432,-0.149012541,0.004002098,0.400319344,-0.000612637,-1.549448706,-0.001009220,-0.248362989,0.000349594,,,,,,,
1736401564.760619,-0.883298236,-0.024968155,,81.304000000,0.097993987,-0.000282322,-0.149015543,0.001594435,0.400319559,-0.000217054,-1.549459735,-0.000407316,-0.248364071,0.000193578,,,,,,,
1736401564.772236,-0.883307639,-0.024899908,,81.305000000,0.098014834,0.019426018,-0.149016966,0.000753830,0.400319449,-0.000146083,-1.549471290,-0.000330443,-0.248365052,0.000138392,,,,,,,
1736401564.773770,-0.883316759,-0.024548234,,81.306000000,0.097969886,-0.026652455,-0.149014211,0.004001920,0.400318801,-0.000612610,-1.549483600,-0.001009205,-0.248365767,0.000349593,,,,,,,
1736401564.787595,-0.883326650,-0.024968110,,81.307000000,0.097997394,-0.000282320,-0.149017212,0.001594459,0.400319016,-0.000217026,-1.549494629,-0.000407300,-0.248366850,0.000193579,,,,,,,
1736401564.794605,-0.883336053,-0.024899736,,81.308000000,0.098018241,0.019425940,-0.149018636,0.000753974,0.400318905,-0.000146063,-1.549506183,-0.000330439,-0.248367831,0.000138395,,,,,,,
1736401564.803609,-0.883345173,-0.024548004,,81.309000000,0.097973294,-0.026651479,-0.149015881,0.004001742,0.400318258,-0.000612583,-1.549518493,-0.001009190,-0.248368546,0.000349592,,,,,,,
1736401564.808852,-0.883355065,-0.024968064,,81.310000000,0.098000802,-0.000282318,-0.149018882,0.001594483,0.400318472,-0.000216999,-1.549529523,-0.000407285,-0.248369628,0.000193580,,,,,,,
1736401564.817049,-0.883364468,-0.024899563,,81.311000000,0.098021648,0.019425862,-0.149020305,0.000754117,0.400318362,-0.000146043,-1.549541077,-0.000330435,-0.248370610,0.000138398,,,,,,,
1736401564.819206,-0.883373587,-0.024547773,,81.312000000,0.097976702,-0.026650503,-0.149017551,0.004001563,0.400317715,-0.000612556,-1.549553387,-0.001009175,-0.248371325,0.000349591,,,,,,,
1736401564.823633,-0.883383479,-0.024968019,,81.313000000,0.098004209,-0.000282316,-0.149020552,0.001594507,0.400317929,-0.000216971,-1.549564416,-0.000407269,-0.248372407,0.000193581,,,,,,,
1736401564.823957,0.000000000,,0.000000000,1736401564.820651054,0.000000000,,0.000000000,,0.000000000,,0.000000000,,0.000000000,,,,,,,,
1736401564.824979,-0.883392882,-0.024899391,,81.314000000,0.098025055,0.019425784,-0.149021975,0.000754260,0.400317819,-0.000146023,-1.549575970,-0.000330430,-0.248373388,0.000138401,,,,,,,
1736401564.827786,-0.883402002,-0.024547543,,81.315000000,0.097980110,-0.026649527,-0.149019221,0.004001385,0.400317172,-0.000612529,-1.549588280,-0.001009159,-0.248374104,0.000349591,,,,,,,
1736401564.834893,-0.883411894,-0.024967973,,81.316000000,0.098007616,-0.000282314,-0.149022221,0.001594530,0.400317386,-0.000216944,-1.549599310,-0.000407253,-0.248375186,0.000193582,,,,,,,
1736401564.841263,-0.883421297,-0.024899219,,81.317000000,0.098028462,0.019425706,-0.149023644,0.000754404,0.400317276,-0.000146003,-1.549610864,-0.000330426,-0.248376167,0.000138405,,,,,,,
1736401564.843473,-0.883430416,-0.024547312,,81.318000000,0.097983518,-0.026648550,-0.149020890,0.004001207,0.400316628,-0.000612502,-1.549623174,-0.001009144,-0.248376882,0.000349590,,,,,,,
1736401564.848156,-0.883440308,-0.024967928,,81.319000000,0.098011023,-0.000282312,-0.149023891,0.001594554,0.400316843,-0.000216917,-1.549634203,-0.000407237,-0.248377964,0.000193583,,,,,,,
1736401564.850669,-0.883449711,-0.024899046,,81.320000000,0.098031869,0.019425628,-0.149025314,0.000754547,0.400316733,-0.000145982,-1.549645758,-0.000330421,-0.248378946,0.000138408,,,,,,,
1736401564.851364,-0.883458831,-0.024547081,,81.321000000,0.097986927,-0.026647574,-0.149022560,0.004001029,0.400316085,-0.000612474,-1.549658068,-0.001009129,-0.248379661,0.000349589,,,,,,,
1736401564.852844,-0.883468723,-0.024967882,,81.322000000,0.098014431,-0.000282310,-0.149025561,0.001594578,0.400316300,-0.000216889,-1.549669097,-0.000407221,-0.248380743,0.000193585,,,,,,,
1736401564.854775,-0.883478126,-0.024898874,,81.323000000,0.098035277,0.019425550,-0.149026983,0.000754691,0.400316189,-0.000145962,-1.549680651,-0.000330417,-0.248381725,0.000138411,,,,,,,
1736401564.855997,-0.883487245,-0.024546851,,81.324000000,0.097990335,-0.026646598,-0.149024230,0.004000852,0.400315542,-0.000612447,-1.549692961,-0.001009114,-0.248382440,0.000349588,,,,,,,
1736401564.857227,-0.883497138,-0.024967837,,81.325000000,0.098017838,-0.000282308,-0.149027230,0.001594602,0.400315756,-0.000216862,-1.549703990,-0.000407205,-0.248383522,0.000193586,,,,,,,
1736401564.860289,-0.883506540,-0.024898702,,81.326000000,0.098038684,0.019425473,-0.149028653,0.000754834,0.400315646,-0.000145942,-1.549715545,-0.000330413,-0.248384503,0.000138414,,,,,,,
1736401564.862498,-0.883515659,-0.024546620,,81.327000000,0.097993743,-0.026645622,-0.149025900,0.004000674,0.400314999,-0.000612420,-1.549727855,-0.001009098,-0.248385218,0.000349588,,,,,,,
1736401564.869624,-0.883525552,-0.024967791,,81.328000000,0.098021245,-0.000282306,-0.149028900,0.001594626,0.400315213,-0.000216834,-1.549738884,-0.000407189,-0.248386301,0.000193587,,,,,,,
1736401564.873059,-0.883534954,-0.024898529,,81.329000000,0.098042091,0.019425395,-0.149030322,0.000754977,0.400315103,-0.000145922,-1.549750438,-0.000330408,-0.248387282,0.000138417,,,,,,,
1736401564.875001,-0.883544074,-0.024546389,,81.330000000,0.097997151,-0.026644646,-0.149027570,0.004000496,0.400314456,-0.000612393,-1.549762748,-0.001009083,-0.248387997,0.000349587,,,,,,,
1736401564.877106,-0.883553967,-0.024967746,,81.331000000,0.098024652,-0.000282304,-0.149030569,0.001594649,0.400314670,-0.000216807,-1.549773777,-0.000407173,-0.248389079,0.000193588,,,,,,,
1736401564.879107,-0.883563369,-0.024898357,,81.332000000,0.098045498,0.019425318,-0.149031992,0.000755121,0.400314560,-0.000145902,-1.549785332,-0.000330404,-0.248390061,0.000138420,,,,,,,
1736401564.881082,-0.883572488,-0.024546158,,81.333000000,0.098000560,-0.026643670,-0.149029239,0.004000318,0.400313912,-0.000612366,-1.549797642,-0.001009068,-0.248390776,0.000349586,,,,,,,
1736401564.888144,-0.883582381,-0.024967700,,81.334000000,0.098028060,-0.000282302,-0.149032239,0.001594673,0.400314127,-0.000216780,-1.549808671,-0.000407158,-0.248391858,0.000193589,,,,,,,
1736401564.890216,-0.883591783,-0.024898184,,81.335000000,0.098048905,0.019425240,-0.149033661,0.000755264,0.400314017,-0.000145882,-1.549820225,-0.000330400,-0.248392839,0.000138423,,,,,,,
1736401564.894538,-0.883600903,-0.024545928,,81.336000000,0.098003968,-0.026642694,-0.149030909,0.004000140,0.400313369,-0.000612339,-1.549832535,-0.001009053,-0.248393554,0.000349585,,,,,,,
1736401564.895880,-0.883610796,-0.024967654,,81.337000000,0.098031467,-0.000282300,-0.149033909,0.001594697,0.400313584,-0.000216752,-1.549843564,-0.000407142,-0.248394637,0.000193590,,,,,,,
1736401564.899116,-0.883620198,-0.024898011,,81.338000000,0.098052312,0.019425162,-0.149035331,0.000755408,0.400313473,-0.000145862,-1.549855119,-0.000330395,-0.248395618,0.000138426,,,,,,,
1736401564.902250,-0.883629317,-0.024545697,,81.339000000,0.098007376,-0.026641717,-0.149032579,0.003999962,0.400312826,-0.000612312,-1.549867429,-0.001009037,-0.248396333,0.000349584,,,,,,,
1736401564.908362,-0.883639210,-0.024967609,,81.340000000,0.098034874,-0.000282298,-0.149035578,0.001594721,0.400313040,-0.000216725,-1.549878458,-0.000407126,-0.248397415,0.000193592,,,,,,,
1736401564.912936,-0.883648612,-0.024897839,,81.341000000,0.098055720,0.019425085,-0.149037000,0.000755551,0.400312930,-0.000145842,-1.549890012,-0.000330391,-0.248398397,0.000138429,,,,,,,
1736401564.918233,-0.883657731,-0.024545466,,81.342000000,0.098010784,-0.026640741,-0.149034249,0.003999784,0.400312283,-0.000612285,-1.549902322,-0.001009022,-0.248399112,0.000349584,,,,,,,
1736401564.923962,0.000000000,,0.000000000,1736401564.920571327,0.000000000,,0.000000000,,0.000000000,,0.000000000,,0.000000000,,,,,,,,
1736401564.924066,-0.883667625,-0.024967563,,81.343000000,0.098038281,-0.000282296,-0.149037248,0.001594745,0.400312497,-0.000216697,-1.549913351,-0.000407110,-0.248400194,0.000193593,,,,,,,
1736401564.927627,-0.883677027,-0.024897666,,81.344000000,0.098059127,0.019425008,-0.149038670,0.000755694,0.400312387,-0.000145822,-1.549924906,-0.000330386,-0.248401176,0.000138432,,,,,,,
1736401564.935601,-0.883686146,-0.024545235,,81.345000000,0.098014192,-0.026639765,-0.149035919,0.003999607,0.400311740,-0.000612258,-1.549937216,-0.001009007,-0.248401891,0.000349583,,,,,,,
1736401564.940487,-0.883696039,-0.024967517,,81.346000000,0.098041689,-0.000282294,-0.149038918,0.001594769,0.400311954,-0.000216670,-1.549948245,-0.000407094,-0.248402973,0.000193594,,,,,,,
1736401564.941144,-0.883705441,-0.024897493,,81.347000000,0.098062534,0.019424930,-0.149040339,0.000755838,0.400311844,-0.000145802,-1.549959799,-0.000330382,-0.248403954,0.000138435,,,,,,,
1736401564.948089,-0.883714560,-0.024545004,,81.348000000,0.098017601,-0.026638789,-0.149037589,0.003999429,0.400311196,-0.000612230,-1.549972109,-0.001008992,-0.248404669,0.000349582,,,,,,,
1736401564.948220,-0.883724454,-0.024967471,,81.349000000,0.098045096,-0.000282292,-0.149040587,0.001594793,0.400311411,-0.000216642,-1.549983139,-0.000407078,-0.248405752,0.000193595,,,,,,,
1736401564.950554,-0.883733856,-0.024897320,,81.350000000,0.098065941,0.019424853,-0.149042009,0.000755981,0.400311301,-0.000145782,-1.549994693,-0.000330378,-0.248406733,0.000138438,,,,,,,
1736401564.953589,-0.883742974,-0.024544773,,81.351000000,0.098021009,-0.026637813,-0.149039258,0.003999251,0.400310653,-0.000612203,-1.550007003,-0.001008977,-0.248407448,0.000349581,,,,,,,
1736401564.954377,-0.883752869,-0.024967426,,81.352000000,0.098048503,-0.000282290,-0.149042257,0.001594817,0.400310868,-0.000216615,-1.550018032,-0.000407062,-0.248408530,0.000193596,,,,,,,
1736401564.961558,-0.883762270,-0.024897148,,81.353000000,0.098069348,0.019424776,-0.149043678,0.000756125,0.400310757,-0.000145761,-1.550029587,-0.000330373,-0.248409512,0.000138441,,,,,,,
1736401564.962237,-0.883771389,-0.024544542,,81.354000000,0.098024417,-0.026636837,-0.149040928,0.003999074,0.400310110,-0.000612176,-1.550041896,-0.001008961,-0.248410227,0.000349581,,,,,,,
1736401564.965878,-0.883781283,-0.024967380,,81.355000000,0.098051910,-0.000282288,-0.149043926,0.001594840,0.400310324,-0.000216588,-1.550052926,-0.000407046,-0.248411309,0.000193597,,,,,,,
1736401564.970969,-0.883790684,-0.024896975,,81.356000000,0.098072755,0.019424699,-0.149045348,0.000756268,0.400310214,-0.000145741,-1.550064480,-0.000330369,-0.248412290,0.000138444,,,,,,,
1736401564.972748,-0.883799803,-0.024544311,,81.357000000,0.098027825,-0.026635861,-0.149042598,0.003998896,0.400309567,-0.000612149,-1.550076790,-0.001008946,-0.248413005,0.000349580,,,,,,,
1736401564.975203,-0.883809698,-0.024967334,,81.358000000,0.098055318,-0.000282286,-0.149045596,0.001594864,0.400309781,-0.000216560,-1.550087819,-0.000407030,-0.248414088,0.000193599,,,,,,,
1736401564.977678,-0.883819099,-0.024896802,,81.359000000,0.098076163,0.019424622,-0.149047017,0.000756411,0.400309671,-0.000145721,-1.550099374,-0.000330365,-0.248415069,0.000138447,,,,,,,
1736401564.980800,-0.883828218,-0.024544080,,81.360000000,0.098031234,-0.026634884,-0.149044268,0.003998718,0.400309024,-0.000612122,-1.550111684,-0.001008931,-0.248415784,0.000349579,,,,,,,
1736401564.986488,-0.883838112,-0.024967288,,81.361000000,0.098058725,-0.000282284,-0.149047266,0.001594888,0.400309238,-0.000216533,-1.550122713,-0.000407014,-0.248416866,0.000193600,,,,,,,
1736401564.988963,-0.883847513,-0.024896629,,81.362000000,0.098079570,0.019424544,-0.149048687,0.000756555,0.400309128,-0.000145701,-1.550134267,-0.000330360,-0.248417848,0.000138450,,,,,,,
1736401564.989648,-0.883872055,-0.024541847,,81.363000000,0.098052937,-0.026629887,-0.149044654,0.003998941,0.400308516,-0.000612174,-1.550135276,-0.001008983,-0.248417498,0.000349588,,,,,,,
1736401564.991569,-0.883880556,-0.024966676,,81.364000000,0.098080248,-0.000282184,-0.149047570,0.001595718,0.400308757,-0.000216549,-1.550144607,-0.000406962,-0.248418445,0.000193611,,,,,,,
1736401564.993487,-0.883888561,-0.024894920,,81.365000000,0.098100919,0.019426573,-0.149048910,0.000757401,0.400308673,-0.000145767,-1.550154463,-0.000330394,-0.248419291,0.000138468,,,,,,,
1736401564.995222,-0.883896284,-0.024542055,,81.366000000,0.098055818,-0.026629766,-0.149046081,0.003998768,0.400308052,-0.000612132,-1.550165075,-0.001008953,-0.248419871,0.000349585,,,,,,,
1736401564.999316,-0.883904785,-0.024966643,,81.367000000,0.098083128,-0.000282304,-0.149048997,0.001595565,0.400308293,-0.000216514,-1.550174406,-0.000406963,-0.248420818,0.000193612,,,,,,,
1736401565.002913,-0.883912790,-0.024895082,,81.368000000,0.098103799,0.019425784,-0.149050337,0.000757458,0.400308209,-0.000145729,-1.550184262,-0.000330383,-0.248421665,0.000138470,,,,,,,
1736401565.006040,-0.883920513,-0.024542079,,81.369000000,0.098058699,-0.026629464,-0.149047508,0.003998550,0.400307588,-0.000612100,-1.550194873,-0.001008932,-0.248422245,0.000349584,,,,,,,
1736401565.009603,-0.883929014,-0.024966604,,81.370000000,0.098086009,-0.000282364,-0.149050425,0.001595487,0.400307829,-0.000216486,-1.550204204,-0.000406956,-0.248423192,0.000193613,,,,,,,
1736401565.010613,-0.883937018,-0.024895109,,81.371000000,0.098106679,0.019425284,-0.149051764,0.000757530,0.400307746,-0.000145699,-1.550214060,-0.000330375,-0.248424038,0.000138472,,,,,,,
1736401565.012109,-0.883944741,-0.024541995,,81.372000000,0.098061580,-0.026628900,-0.149048936,0.003998348,0.400307125,-0.000612072,-1.550224672,-0.001008914,-0.248424618,0.000349583,,,,,,,
1736401565.017868,-0.883953242,-0.024966562,,81.373000000,0.098088890,-0.000282398,-0.149051852,0.001595445,0.400307366,-0.000216460,-1.550234003,-0.000406945,-0.248425565,0.000193614,,,,,,,
1736401565.021502,0.000000000,,0.000000000,1736401565.020802498,0.000000000,,0.000000000,,0.000000000,,0.000000000,,0.000000000,,,,,,,,
1736401565.023993,-0.883961247,-0.024895070,,81.374000000,0.098109560,0.019424926,-0.149053191,0.000757616,0.400307282,-0.000145674,-1.550243859,-0.000330368,-0.248426411,0.000138474,,,,,,,
1736401565.027542,-0.883968970,-0.024541852,,81.375000000,0.098064461,-0.026628176,-0.149050363,0.003998152,0.400306661,-0.000612046,-1.550254471,-0.001008898,-0.248426991,0.000349582,,,,,,,
1736401565.033494,-0.883977471,-0.024966521,,81.376000000,0.098091770,-0.000282418,-0.149053279,0.001595421,0.400306902,-0.000216436,-1.550263801,-0.000406932,-0.248427938,0.000193615,,,,,,,
1736401565.033814,-0.883985476,-0.024894996,,81.377000000,0.098112440,0.019424647,-0.149054618,0.000757709,0.400306818,-0.000145652,-1.550273658,-0.000330363,-0.248428784,0.000138477,,,,,,,
1736401565.035851,-0.883993199,-0.024541677,,81.378000000,0.098067343,-0.026627365,-0.149051790,0.003997960,0.400306197,-0.000612022,-1.550284269,-0.001008884,-0.248429364,0.000349581,,,,,,,
1736401565.038388,-0.884001700,-0.024966481,,81.379000000,0.098094651,-0.000282431,-0.149054706,0.001595406,0.400306438,-0.000216413,-1.550293600,-0.000406918,-0.248430311,0.000193616,,,,,,,
1736401565.042117,-0.884009704,-0.024894904,,81.380000000,0.098115320,0.019424414,-0.149056045,0.000757805,0.400306355,-0.000145631,-1.550303456,-0.000330357,-0.248431158,0.000138479,,,,,,,
1736401565.045272,-0.884017427,-0.024541486,,81.381000000,0.098070224,-0.026626509,-0.149053217,0.003997769,0.400305734,-0.000611999,-1.550314068,-0.001008871,-0.248431738,0.000349580,,,,,,,
1736401565.046613,-0.884025928,-0.024966443,,81.382000000,0.098097532,-0.000282439,-0.149056133,0.001595397,0.400305975,-0.000216390,-1.550323399,-0.000406904,-0.248432685,0.000193617,,,,,,,
1736401565.049345,-0.884033933,-0.024894802,,81.383000000,0.098118201,0.019424208,-0.149057472,0.000757904,0.400305891,-0.000145611,-1.550333255,-0.000330352,-0.248433531,0.000138481,,,,,,,
1736401565.050871,-0.884041656,-0.024541287,,81.384000000,0.098073106,-0.026625629,-0.149054644,0.003997581,0.400305270,-0.000611976,-1.550343866,-0.001008858,-0.248434111,0.000349579,,,,,,,
1736401565.051961,-0.884050157,-0.024966406,,81.385000000,0.098100412,-0.000282445,-0.149057559,0.001595390,0.400305511,-0.000216367,-1.550353197,-0.000406890,-0.248435058,0.000193618,,,,,,,
1736401565.053966,-0.884058162,-0.024894694,,81.386000000,0.098121081,0.019424019,-0.149058899,0.000758003,0.400305427,-0.000145591,-1.550363053,-0.000330347,-0.248435904,0.000138484,,,,,,,
1736401565.058901,-0.884065884,-0.024541083,,81.387000000,0.098075987,-0.026624737,-0.149056071,0.003997394,0.400304806,-0.000611953,-1.550373665,-0.001008845,-0.248436484,0.000349578,,,,,,,
1736401565.060935,-0.884074386,-0.024966369,,81.388000000,0.098103293,-0.000282450,-0.149058986,0.001595385,0.400305047,-0.000216344,-1.550382996,-0.000406876,-0.248437431,0.000193618,,,,,,,
1736401565.062976,-0.884082390,-0.024894582,,81.389000000,0.098123962,0.019423841,-0.149060325,0.000758104,0.400304964,-0.000145572,-1.550392852,-0.000330342,-0.248438277,0.000138486,,,,,,,
1736401565.065505,-0.884090113,-0.024540878,,81.390000000,0.098078869,-0.026623841,-0.149057499,0.003997208,0.400304343,-0.000611930,-1.550403463,-0.001008832,-0.248438857,0.000349577,,,,,,,
1736401565.066524,-0.884098614,-0.024966333,,81.391000000,0.098106173,-0.000282453,-0.149060413,0.001595381,0.400304584,-0.000216322,-1.550412794,-0.000406861,-0.248439804,0.000193619,,,,,,,
1736401565.070133,-0.884106619,-0.024894467,,81.392000000,0.098126842,0.019423671,-0.149061752,0.000758206,0.400304500,-0.000145553,-1.550422651,-0.000330337,-0.248440650,0.000138489,,,,,,,
1736401565.073095,-0.884114341,-0.024540673,,81.393000000,0.098081750,-0.026622943,-0.149058926,0.003997024,0.400303879,-0.000611907,-1.550433262,-0.001008819,-0.248441231,0.000349576,,,,,,,
1736401565.075114,-0.884122843,-0.024966297,,81.394000000,0.098109054,-0.000282457,-0.149061840,0.001595379,0.400304120,-0.000216299,-1.550442593,-0.000406847,-0.248442178,0.000193620,,,,,,,
1736401565.078274,-0.884130847,-0.024894350,,81.395000000,0.098129723,0.019423507,-0.149063179,0.000758308,0.400304036,-0.000145535,-1.550452449,-0.000330332,-0.248443024,0.000138491,,,,,,,
1736401565.082045,-0.884138570,-0.024540467,,81.396000000,0.098084632,-0.026622045,-0.149060353,0.003996841,0.400303415,-0.000611885,-1.550463061,-0.001008806,-0.248443604,0.000349575,,,,,,,
1736401565.084559,-0.884147072,-0.024966261,,81.397000000,0.098111935,-0.000282459,-0.149063267,0.001595378,0.400303656,-0.000216277,-1.550472391,-0.000406832,-0.248444551,0.000193621,,,,,,,
1736401565.086709,-0.884155076,-0.024894232,,81.398000000,0.098132603,0.019423348,-0.149064606,0.000758411,0.400303573,-0.000145516,-1.550482248,-0.000330327,-0.248445397,0.000138494,,,,,,,
1736401565.089235,-0.884162798,-0.024540261,,81.399000000,0.098087514,-0.026621149,-0.149061780,0.003996659,0.400302952,-0.000611862,-1.550492859,-0.001008794,-0.248445977,0.000349574,,,,,,,
1736401565.094561,-0.884171300,-0.024966225,,81.400000000,0.098114815,-0.000282462,-0.149064694,0.001595378,0.400303193,-0.000216255,-1.550502190,-0.000406817,-0.248446924,0.000193622,,,,,,,
1736401565.096276,-0.884179305,-0.024894113,,81.401000000,0.098135484,0.019423194,-0.149066033,0.000758515,0.400303109,-0.000145498,-1.550512046,-0.000330323,-0.248447770,0.000138496,,,,,,,
1736401565.099218,-0.884187027,-0.024540055,,81.402000000,0.098090395,-0.026620254,-0.149063207,0.003996478,0.400302488,-0.000611839,-1.550522658,-0.001008781,-0.248448350,0.000349573,,,,,,,
1736401565.101843,-0.884195529,-0.024966189,,81.403000000,0.098117696,-0.000282464,-0.149066121,0.001595378,0.400302729,-0.000216232,-1.550531989,-0.000406803,-0.248449297,0.000193623,,,,,,,
1736401565.102992,-0.884203533,-0.024893992,,81.404000000,0.098138364,0.019423044,-0.149067460,0.000758619,0.400302645,-0.000145479,-1.550541845,-0.000330318,-0.248450143,0.000138499,,,,,,,
1736401565.105242,-0.884211255,-0.024539849,,81.405000000,0.098093277,-0.026619361,-0.149064634,0.003996299,0.400302024,-0.000611817,-1.550552456,-0.001008768,-0.248450723,0.000349572,,,,,,,
1736401565.108352,-0.884219758,-0.024966154,,81.406000000,0.098120577,-0.000282466,-0.149067548,0.001595379,0.400302265,-0.000216210,-1.550561787,-0.000406788,-0.248451670,0.000193624,,,,,,,
1736401565.111589,-0.884227762,-0.024893871,,81.407000000,0.098141245,0.019422897,-0.149068887,0.000758724,0.400302182,-0.000145461,-1.550571644,-0.000330313,-0.248452517,0.000138501,,,,,,,
1736401565.114111,-0.884235484,-0.024539644,,81.408000000,0.098096158,-0.026618471,-0.149066061,0.003996120,0.400301561,-0.000611794,-1.550582255,-0.001008756,-0.248453097,0.000349571,,,,,,,
1736401565.117586,-0.884243987,-0.024966118,,81.409000000,0.098123457,-0.000282468,-0.149068975,0.001595381,0.400301802,-0.000216188,-1.550591586,-0.000406773,-0.248454044,0.000193625,,,,,,,
1736401565.119023,-0.884251991,-0.024893748,,81.410000000,0.098144125,0.019422753,-0.149070313,0.000758830,0.400301718,-0.000145442,-1.550601442,-0.000330309,-0.248454890,0.000138503,,,,,,,
1736401565.121894,0.000000000,,0.000000000,1736401565.121034861,0.000000000,,0.000000000,,0.000000000,,0.000000000,,0.000000000,,,,,,,,
1736401565.123554,-0.884259712,-0.024539439,,81.411000000,0.098099040,-0.026617583,-0.149067489,0.003995942,0.400301097,-0.000611771,-1.550612054,-0.001008743,-0.248455470,0.000349571,,,,,,,
1736401565.126613,-0.884268215,-0.024966082,,81.412000000,0.098126338,-0.000282470,-0.149070402,0.001595384,0.400301338,-0.000216165,-1.550621384,-0.000406759,-0.248456417,0.000193626,,,,,,,
1736401565.128594,-0.884276219,-0.024893624,,81.413000000,0.098147006,0.019422612,-0.149071740,0.000758936,0.400301254,-0.000145424,-1.550631241,-0.000330304,-0.248457263,0.000138506,,,,,,,
1736401565.133388,-0.884283941,-0.024539234,,81.414000000,0.098101921,-0.026616697,-0.149068916,0.003995765,0.400300633,-0.000611748,-1.550641852,-0.001008730,-0.248457843,0.000349570,,,,,,,
1736401565.137898,-0.884292444,-0.024966045,,81.415000000,0.098129219,-0.000282471,-0.149071829,0.001595388,0.400300874,-0.000216143,-1.550651183,-0.000406744,-0.248458790,0.000193626,,,,,,,
1736401565.139952,-0.884300448,-0.024893499,,81.416000000,0.098149886,0.019422475,-0.149073167,0.000759043,0.400300791,-0.000145406,-1.550661039,-0.000330299,-0.248459636,0.000138508,,,,,,,
1736401565.141974,-0.884308169,-0.024539030,,81.417000000,0.098104803,-0.026615813,-0.149070343,0.003995589,0.400300170,-0.000611726,-1.550671651,-0.001008717,-0.248460216,0.000349569,,,,,,,
1736401565.143677,-0.884316673,-0.024966009,,81.418000000,0.098132099,-0.000282472,-0.149073256,0.001595392,0.400300411,-0.000216121,-1.550680982,-0.000406730,-0.248461163,0.000193627,,,,,,,
1736401565.146904,-0.884324676,-0.024893374,,81.419000000,0.098152767,0.019422340,-0.149074594,0.000759150,0.400300327,-0.000145388,-1.550690838,-0.000330295,-0.248462010,0.000138511,,,,,,,
1736401565.150695,-0.884332398,-0.024538826,,81.420000000,0.098107684,-0.026614931,-0.149071770,0.003995414,0.400299706,-0.000611703,-1.550701449,-0.001008704,-0.248462590,0.000349568,,,,,,,
1736401565.152531,-0.884340901,-0.024965973,,81.421000000,0.098134980,-0.000282473,-0.149074683,0.001595397,0.400299947,-0.000216099,-1.550710780,-0.000406715,-0.248463537,0.000193628,,,,,,,
1736401565.154399,-0.884348905,-0.024893248,,81.422000000,0.098155647,0.019422208,-0.149076021,0.000759258,0.400299863,-0.000145370,-1.550720637,-0.000330290,-0.248464383,0.000138513,,,,,,,
1736401565.156393,-0.884356626,-0.024538622,,81.423000000,0.098110566,-0.026614051,-0.149073197,0.003995240,0.400299242,-0.000611680,-1.550731248,-0.001008692,-0.248464963,0.000349567,,,,,,,
1736401565.157750,-0.884365130,-0.024965936,,81.424000000,0.098137861,-0.000282474,-0.149076110,0.001595402,0.400299483,-0.000216076,-1.550740579,-0.000406700,-0.248465910,0.000193629,,,,,,,
1736401565.161441,-0.884373134,-0.024893120,,81.425000000,0.098158528,0.019422079,-0.149077448,0.000759367,0.400299399,-0.000145352,-1.550750435,-0.000330286,-0.248466756,0.000138516,,,,,,,
1736401565.164311,-0.884380855,-0.024538419,,81.426000000,0.098113447,-0.026613173,-0.149074624,0.003995066,0.400298779,-0.000611657,-1.550761047,-0.001008679,-0.248467336,0.000349566,,,,,,,
1736401565.167493,-0.884389359,-0.024965900,,81.427000000,0.098140741,-0.000282475,-0.149077537,0.001595409,0.400299020,-0.000216054,-1.550770377,-0.000406686,-0.248468283,0.000193630,,,,,,,
1736401565.169152,-0.884397362,-0.024892992,,81.428000000,0.098161408,0.019421952,-0.149078875,0.000759476,0.400298936,-0.000145334,-1.550780234,-0.000330281,-0.248469129,0.000138518,,,,,,,
1736401565.170422,-0.884405083,-0.024538216,,81.429000000,0.098116329,-0.026612297,-0.149076051,0.003994893,0.400298315,-0.000611635,-1.550790845,-0.001008666,-0.248469709,0.000349566,,,,,,,
1736401565.171883,-0.884413587,-0.024965863,,81.430000000,0.098143622,-0.000282476,-0.149078964,0.001595415,0.400298556,-0.000216032,-1.550800176,-0.000406671,-0.248470656,0.000193631,,,,,,,
1736401565.175194,-0.884421591,-0.024892863,,81.431000000,0.098164289,0.019421827,-0.149080301,0.000759585,0.400298472,-0.000145316,-1.550810032,-0.000330277,-0.248471502,0.000138521,,,,,,,
1736401565.178628,-0.884429312,-0.024538013,,81.432000000,0.098119210,-0.026611423,-0.149077479,0.003994721,0.400297851,-0.000611612,-1.550820644,-0.001008653,-0.248472082,0.000349565,,,,,,,
1736401565.181211,-0.884437816,-0.024965826,,81.433000000,0.098146502,-0.000282477,-0.149080391,0.001595423,0.400298092,-0.000216010,-1.550829974,-0.000406656,-0.248473029,0.000193632,,,,,,,
1736401565.183836,-0.884445819,-0.024892734,,81.434000000,0.098167169,0.019421705,-0.149081728,0.000759695,0.400298008,-0.000145298,-1.550839831,-0.000330272,-0.248473876,0.000138523,,,,,,,
1736401565.185383,-0.884453541,-0.024537810,,81.435000000,0.098122092,-0.026610551,-0.149078906,0.003994550,0.400297388,-0.000611589,-1.550850442,-0.001008640,-0.248474456,0.000349564,,,,,,,
1736401565.187711,-0.884462045,-0.024965790,,81.436000000,0.098149383,-0.000282477,-0.149081818,0.001595430,0.400297629,-0.000215987,-1.550859773,-0.000406642,-0.248475403,0.000193633,,,,,,,
1736401565.189582,-0.884470048,-0.024892604,,81.437000000,0.098170050,0.019421585,-0.149083155,0.000759806,0.400297545,-0.000145281,-1.550869629,-0.000330268,-0.248476249,0.000138526,,,,,,,
1736401565.193239,-0.884477769,-0.024537608,,81.438000000,0.098124973,-0.026609680,-0.149080333,0.003994380,0.400296924,-0.000611566,-1.550880241,-0.001008627,-0.248476829,0.000349563,,,,,,,
1736401565.196752,-0.884486273,-0.024965753,,81.439000000,0.098152264,-0.000282477,-0.149083245,0.001595439,0.400297165,-0.000215965,-1.550889572,-0.000406627,-0.248477776,0.000193634,,,,,,,
1736401565.202863,-0.884494277,-0.024892473,,81.440000000,0.098172930,0.019421467,-0.149084582,0.000759917,0.400297081,-0.000145263,-1.550899428,-0.000330263,-0.248478622,0.000138529,,,,,,,
1736401565.205843,-0.884510502,-0.024965716,,81.442000000,0.098155144,-0.000282478,-0.149084672,0.001595448,0.400296701,-0.000215943,-1.550919370,-0.000406613,-0.248480149,0.000193635,,,,,,,
1736401565.208375,-0.884518505,-0.024892341,,81.443000000,0.098175811,0.019421352,-0.149086009,0.000760028,0.400296617,-0.000145245,-1.550929227,-0.000330259,-0.248480995,0.000138531,,,,,,,
1736401565.212779,-0.884526226,-0.024537203,,81.444000000,0.098130736,-0.026607943,-0.149083187,0.003994041,0.400295997,-0.000611521,-1.550939838,-0.001008602,-0.248481575,0.000349562,,,,,,,
1736401565.216930,-0.884534731,-0.024965679,,81.445000000,0.098158025,-0.000282478,-0.149086099,0.001595457,0.400296238,-0.000215921,-1.550949169,-0.000406598,-0.248482522,0.000193636,,,,,,,
1736401565.219968,-0.884542734,-0.024892209,,81.446000000,0.098178691,0.019421238,-0.149087436,0.000760140,0.400296154,-0.000145227,-1.550959025,-0.000330255,-0.248483369,0.000138534,,,,,,,
1736401565.221776,0.000000000,,0.000000000,1736401565.220863819,0.000000000,,0.000000000,,0.000000000,,0.000000000,,0.000000000,,,,,,,,
1736401565.222851,-0.884550455,-0.024537002,,81.447000000,0.098133618,-0.026607076,-0.149084614,0.003993872,0.400295533,-0.000611498,-1.550969637,-0.001008589,-0.248483949,0.000349561,,,,,,,
1736401565.225714,-0.884558960,-0.024965642,,81.448000000,0.098160906,-0.000282478,-0.149087526,0.001595467,0.400295774,-0.000215898,-1.550978967,-0.000406584,-0.248484896,0.000193637,,,,,,,
1736401565.228329,-0.884566962,-0.024892076,,81.449000000,0.098181572,0.019421126,-0.149088863,0.000760252,0.400295690,-0.000145210,-1.550988824,-0.000330250,-0.248485742,0.000138536,,,,,,,
1736401565.230086,-0.884574683,-0.024536800,,81.450000000,0.098136499,-0.026606211,-0.149086041,0.003993704,0.400295069,-0.000611475,-1.550999435,-0.001008576,-0.248486322,0.000349560,,,,,,,
1736401565.231777,-0.884583188,-0.024965604,,81.451000000,0.098163786,-0.000282478,-0.149088953,0.001595477,0.400295310,-0.000215876,-1.551008766,-0.000406569,-0.248487269,0.000193638,,,,,,,
1736401565.235533,-0.884591191,-0.024891943,,81.452000000,0.098184452,0.019421016,-0.149090290,0.000760364,0.400295226,-0.000145192,-1.551018622,-0.000330246,-0.248488115,0.000138539,,,,,,,
1736401565.237748,-0.884598912,-0.024536599,,81.453000000,0.098139381,-0.026605348,-0.149087469,0.003993537,0.400294606,-0.000611452,-1.551029234,-0.001008563,-0.248488695,0.000349559,,,,,,,
1736401565.240853,-0.884607417,-0.024965567,,81.454000000,0.098166667,-0.000282478,-0.149090380,0.001595487,0.400294847,-0.000215854,-1.551038565,-0.000406554,-0.248489642,0.000193639,,,,,,,
1736401565.243626,-0.884615420,-0.024891809,,81.455000000,0.098187333,0.019420908,-0.149091716,0.000760477,0.400294763,-0.000145175,-1.551048421,-0.000330242,-0.248490488,0.000138541,,,,,,,
1736401565.245305,-0.884623140,-0.024536397,,81.456000000,0.098142263,-0.026604485,-0.149088896,0.003993370,0.400294142,-0.000611429,-1.551059032,-0.001008550,-0.248491068,0.000349558,,,,,,,
1736401565.247531,-0.884631646,-0.024965530,,81.457000000,0.098169548,-0.000282478,-0.149091807,0.001595498,0.400294383,-0.000215831,-1.551068363,-0.000406540,-0.248492015,0.000193640,,,,,,,
1736401565.252935,-0.884639648,-0.024891674,,81.458000000,0.098190214,0.019420802,-0.149093143,0.000760590,0.400294299,-0.000145157,-1.551078220,-0.000330237,-0.248492861,0.000138544,,,,,,,
1736401565.254048,-0.884647369,-0.024536196,,81.459000000,0.098145144,-0.026603624,-0.149090323,0.003993204,0.400293678,-0.000611406,-1.551088831,-0.001008537,-0.248493442,0.000349558,,,,,,,
1736401565.256739,-0.884655874,-0.024965492,,81.460000000,0.098172428,-0.000282477,-0.149093234,0.001595510,0.400293919,-0.000215809,-1.551098162,-0.000406525,-0.248494389,0.000193641,,,,,,,
1736401565.260369,-0.884663877,-0.024891539,,81.461000000,0.098193094,0.019420697,-0.149094570,0.000760704,0.400293835,-0.000145140,-1.551108018,-0.000330233,-0.248495235,0.000138546,,,,,,,
1736401565.262675,-0.884671597,-0.024535995,,81.462000000,0.098148026,-0.026602765,-0.149091750,0.003993038,0.400293215,-0.000611383,-1.551118630,-0.001008524,-0.248495815,0.000349557,,,,,,,
1736401565.263755,-0.884680103,-0.024965455,,81.463000000,0.098175309,-0.000282477,-0.149094661,0.001595522,0.400293456,-0.000215787,-1.551127960,-0.000406511,-0.248496762,0.000193642,,,,,,,
1736401565.266488,-0.884688105,-0.024891403,,81.464000000,0.098195975,0.019420593,-0.149095997,0.000760818,0.400293372,-0.000145122,-1.551137817,-0.000330229,-0.248497608,0.000138549,,,,,,,
1736401565.271371,-0.884695826,-0.024535794,,81.465000000,0.098150907,-0.026601906,-0.149093177,0.003992873,0.400292751,-0.000611360,-1.551148428,-0.001008511,-0.248498188,0.000349556,,,,,,,
1736401565.273531,-0.884704332,-0.024965417,,81.466000000,0.098178190,-0.000282476,-0.149096088,0.001595534,0.400292992,-0.000215764,-1.551157759,-0.000406497,-0.248499135,0.000193643,,,,,,,
1736401565.275016,-0.884712334,-0.024891267,,81.467000000,0.098198855,0.019420492,-0.149097424,0.000760932,0.400292908,-0.000145105,-1.551167615,-0.000330224,-0.248499981,0.000138551,,,,,,,
1736401565.276901,-0.884720054,-0.024535594,,81.468000000,0.098153789,-0.026601049,-0.149094604,0.003992708,0.400292287,-0.000611337,-1.551178227,-0.001008498,-0.248500561,0.000349555,,,,,,,
1736401565.278677,-0.884728560,-0.024965379,,81.469000000,0.098181070,-0.000282476,-0.149097515,0.001595546,0.400292528,-0.000215742,-1.551187557,-0.000406482,-0.248501508,0.000193644,,,,,,,
1736401565.280139,-0.884736563,-0.024891131,,81.470000000,0.098201736,0.019420391,-0.149098851,0.000761046,0.400292444,-0.000145087,-1.551197414,-0.000330220,-0.248502354,0.000138554,,,,,,,
1736401565.284970,-0.884744283,-0.024535393,,81.471000000,0.098156670,-0.026600192,-0.149096031,0.003992544,0.400291824,-0.000611314,-1.551208025,-0.001008485,-0.248502934,0.000349555,,,,,,,
1736401565.287738,-0.884752789,-0.024965342,,81.472000000,0.098183951,-0.000282475,-0.149098941,0.001595559,0.400292065,-0.000215720,-1.551217356,-0.000406468,-0.248503881,0.000193645,,,,,,,
1736401565.289979,-0.884760791,-0.024890994,,81.473000000,0.098204616,0.019420293,-0.149100277,0.000761161,0.400291981,-0.000145070,-1.551227213,-0.000330216,-0.248504728,0.000138556,,,,,,,
1736401565.292714,-0.884768511,-0.024535193,,81.474000000,0.098159552,-0.026599337,-0.149097459,0.003992380,0.400291360,-0.000611292,-1.551237824,-0.001008472,-0.248505308,0.000349554,,,,,,,
1736401565.296428,-0.884777018,-0.024965304,,81.475000000,0.098186832,-0.000282475,-0.149100368,0.001595572,0.400291601,-0.000215697,-1.551247155,-0.000406453,-0.248506255,0.000193645,,,,,,,
1736401565.299232,-0.884785020,-0.024890856,,81.476000000,0.098207497,0.019420195,-0.149101704,0.000761276,0.400291517,-0.000145052,-1.551257011,-0.000330212,-0.248507101,0.000138559,,,,,,,
1736401565.302813,-0.884792740,-0.024534993,,81.477000000,0.098162433,-0.026598482,-0.149098886,0.003992217,0.400290896,-0.000611269,-1.551267622,-0.001008459,-0.248507681,0.000349553,,,,,,,
1736401565.304544,-0.884801246,-0.024965266,,81.478000000,0.098189712,-0.000282474,-0.149101795,0.001595585,0.400291137,-0.000215675,-1.551276953,-0.000406439,-0.248508628,0.000193646,,,,,,,
1736401565.308597,-0.884809248,-0.024890719,,81.479000000,0.098210377,0.019420099,-0.149103131,0.000761391,0.400291053,-0.000145035,-1.551286810,-0.000330208,-0.248509474,0.000138561,,,,,,,
1736401565.310906,-0.884816968,-0.024534792,,81.480000000,0.098165315,-0.026597629,-0.149100313,0.003992054,0.400290433,-0.000611246,-1.551297421,-0.001008446,-0.248510054,0.000349552,,,,,,,
1736401565.313430,-0.884825475,-0.024965228,,81.481000000,0.098192593,-0.000282473,-0.149103222,0.001595599,0.400290674,-0.000215653,-1.551306752,-0.000406424,-0.248511001,0.000193647,,,,,,,
1736401565.316094,-0.884833477,-0.024890580,,81.482000000,0.098213258,0.019420004,-0.149104558,0.000761507,0.400290590,-0.000145018,-1.551316608,-0.000330203,-0.248511847,0.000138564,,,,,,,
1736401565.319000,-0.884841197,-0.024534592,,81.483000000,0.098168196,-0.026596776,-0.149101740,0.003991892,0.400289969,-0.000611223,-1.551327220,-0.001008433,-0.248512427,0.000349552,,,,,,,
1736401565.320737,-0.884849704,-0.024965190,,81.484000000,0.098195473,-0.000282472,-0.149104649,0.001595613,0.400290210,-0.000215630,-1.551336550,-0.000406410,-0.248513374,0.000193648,,,,,,,
1736401565.322160,0.000000000,,0.000000000,1736401565.321481228,0.000000000,,0.000000000,,0.000000000,,0.000000000,,0.000000000,,,,,,,,
1736401565.324259,-0.884857705,-0.024890442,,81.485000000,0.098216138,0.019419910,-0.149105985,0.000761623,0.400290126,-0.000145000,-1.551346407,-0.000330199,-0.248514220,0.000138567,,,,,,,
1736401565.329632,-0.884865426,-0.024534392,,81.486000000,0.098171078,-0.026595925,-0.149103167,0.003991730,0.400289505,-0.000611200,-1.551357018,-0.001008420,-0.248514801,0.000349551,,,,,,,
1736401565.332705,-0.884873933,-0.024965152,,81.487000000,0.098198354,-0.000282471,-0.149106076,0.001595627,0.400289746,-0.000215608,-1.551366349,-0.000406396,-0.248515748,0.000193649,,,,,,,
1736401565.335093,-0.884881934,-0.024890303,,81.488000000,0.098219019,0.019419818,-0.149107412,0.000761739,0.400289662,-0.000144983,-1.551376206,-0.000330195,-0.248516594,0.000138569,,,,,,,
1736401565.338662,-0.884889654,-0.024534193,,81.489000000,0.098173959,-0.026595074,-0.149104594,0.003991568,0.400289042,-0.000611177,-1.551386817,-0.001008407,-0.248517174,0.000349550,,,,,,,
1736401565.340610,-0.884898161,-0.024965114,,81.490000000,0.098201235,-0.000282470,-0.149107503,0.001595642,0.400289283,-0.000215585,-1.551396148,-0.000406381,-0.248518121,0.000193650,,,,,,,
1736401565.344235,-0.884906163,-0.024890163,,81.491000000,0.098221900,0.019419727,-0.149108839,0.000761855,0.400289199,-0.000144966,-1.551406004,-0.000330191,-0.248518967,0.000138572,,,,,,,
1736401565.348250,-0.884913883,-0.024533993,,81.492000000,0.098176841,-0.026594224,-0.149106021,0.003991407,0.400288578,-0.000611154,-1.551416615,-0.001008394,-0.248519547,0.000349549,,,,,,,
1736401565.351790,-0.884922390,-0.024965076,,81.493000000,0.098204115,-0.000282469,-0.149108930,0.001595657,0.400288819,-0.000215563,-1.551425946,-0.000406367,-0.248520494,0.000193651,,,,,,,
1736401565.353767,-0.884930391,-0.024890023,,81.494000000,0.098224780,0.019419636,-0.149110265,0.000761971,0.400288735,-0.000144948,-1.551435803,-0.000330187,-0.248521340,0.000138574,,,,,,,
1736401565.355698,-0.884938111,-0.024533793,,81.495000000,0.098179722,-0.026593375,-0.149107448,0.003991246,0.400288114,-0.000611131,-1.551446414,-0.001008381,-0.248521920,0.000349549,,,,,,,
1736401565.357715,-0.884946619,-0.024965037,,81.496000000,0.098206996,-0.000282468,-0.149110357,0.001595672,0.400288355,-0.000215540,-1.551455745,-0.000406353,-0.248522867,0.000193652,,,,,,,
1736401565.362551,-0.884954620,-0.024889883,,81.497000000,0.098227661,0.019419547,-0.149111692,0.000762088,0.400288271,-0.000144931,-1.551465601,-0.000330183,-0.248523713,0.000138577,,,,,,,
1736401565.363582,-0.884962340,-0.024533594,,81.498000000,0.098182604,-0.026592526,-0.149108876,0.003991086,0.400287651,-0.000611108,-1.551476213,-0.001008368,-0.248524294,0.000349548,,,,,,,
1736401565.366983,-0.884970847,-0.024964999,,81.499000000,0.098209877,-0.000282467,-0.149111784,0.001595687,0.400287892,-0.000215518,-1.551485543,-0.000406338,-0.248525240,0.000193653,,,,,,,
1736401565.368533,-0.884978848,-0.024889743,,81.500000000,0.098230541,0.019419459,-0.149113119,0.000762205,0.400287808,-0.000144914,-1.551495400,-0.000330178,-0.248526087,0.000138579,,,,,,,
1736401565.370249,-0.884986568,-0.024533394,,81.501000000,0.098185485,-0.026591679,-0.149110303,0.003990925,0.400287187,-0.000611085,-1.551506011,-0.001008355,-0.248526667,0.000349547,,,,,,,
1736401565.371705,-0.884995076,-0.024964961,,81.502000000,0.098212757,-0.000282466,-0.149113211,0.001595702,0.400287428,-0.000215495,-1.551515342,-0.000406324,-0.248527614,0.000193654,,,,,,,
1736401565.374182,-0.885003077,-0.024889602,,81.503000000,0.098233422,0.019419371,-0.149114546,0.000762322,0.400287344,-0.000144897,-1.551525199,-0.000330174,-0.248528460,0.000138582,,,,,,,
1736401565.379165,-0.885010797,-0.024533195,,81.504000000,0.098188366,-0.026590832,-0.149111730,0.003990766,0.400286723,-0.000611062,-1.551535810,-0.001008342,-0.248529040,0.000349546,,,,,,,
1736401565.380960,-0.885019305,-0.024964922,,81.505000000,0.098215638,-0.000282465,-0.149114638,0.001595718,0.400286964,-0.000215473,-1.551545140,-0.000406310,-0.248529987,0.000193655,,,,,,,
1736401565.385112,-0.885027306,-0.024889461,,81.506000000,0.098236302,0.019419285,-0.149115973,0.000762439,0.400286880,-0.000144879,-1.551554997,-0.000330170,-0.248530833,0.000138584,,,,,,,
1736401565.386562,-0.885035025,-0.024532996,,81.507000000,0.098191248,-0.026589985,-0.149113157,0.003990606,0.400286260,-0.000611039,-1.551565608,-0.001008329,-0.248531413,0.000349546,,,,,,,
1736401565.390587,-0.885043533,-0.024964884,,81.508000000,0.098218519,-0.000282463,-0.149116065,0.001595734,0.400286501,-0.000215450,-1.551574939,-0.000406296,-0.248532360,0.000193656,,,,,,,
1736401565.392991,-0.885051534,-0.024889320,,81.509000000,0.098239183,0.019419200,-0.149117400,0.000762556,0.400286417,-0.000144862,-1.551584796,-0.000330166,-0.248533206,0.000138587,,,,,,,
1736401565.396809,-0.885059254,-0.024532796,,81.510000000,0.098194129,-0.026589140,-0.149114584,0.003990447,0.400285796,-0.000611016,-1.551595407,-0.001008316,-0.248533786,0.000349545,,,,,,,
1736401565.400038,-0.885067762,-0.024964845,,81.511000000,0.098221399,-0.000282462,-0.149117492,0.001595750,0.400286037,-0.000215427,-1.551604738,-0.000406281,-0.248534733,0.000193657,,,,,,,
1736401565.403898,-0.885075763,-0.024889178,,81.512000000,0.098242063,0.019419115,-0.149118827,0.000762674,0.400285953,-0.000144845,-1.551614594,-0.000330162,-0.248535580,0.000138590,,,,,,,
1736401565.408612,-0.885083482,-0.024532597,,81.513000000,0.098197011,-0.026588295,-0.149116011,0.003990288,0.400285332,-0.000610993,-1.551625206,-0.001008303,-0.248536160,0.000349544,,,,,,,
1736401565.409070,-0.885091991,-0.024964807,,81.514000000,0.098224280,-0.000282461,-0.149118919,0.001595766,0.400285573,-0.000215405,-1.551634536,-0.000406267,-0.248537107,0.000193658,,,,,,,
1736401565.413266,-0.885107711,-0.024532398,,81.516000000,0.098199892,-0.026587450,-0.149117438,0.003990130,0.400284869,-0.000610970,-1.551655004,-0.001008290,-0.248538533,0.000349543,,,,,,,
1736401565.417136,-0.885116219,-0.024964768,,81.517000000,0.098227161,-0.000282459,-0.149120346,0.001595782,0.400285110,-0.000215382,-1.551664335,-0.000406253,-0.248539480,0.000193659,,,,,,,
1736401565.420376,-0.885124220,-0.024888894,,81.518000000,0.098247825,0.019418948,-0.149121680,0.000762909,0.400285026,-0.000144811,-1.551674192,-0.000330154,-0.248540326,0.000138595,,,,,,,
1736401565.423027,0.000000000,,0.000000000,1736401565.420808554,0.000000000,,0.000000000,,0.000000000,,0.000000000,,0.000000000,,,,,,,,
1736401565.423191,-0.885131939,-0.024532199,,81.519000000,0.098202774,-0.026586607,-0.149118865,0.003989972,0.400284405,-0.000610947,-1.551684803,-0.001008277,-0.248540906,0.000349543,,,,,,,
1736401565.425281,-0.885140448,-0.024964729,,81.520000000,0.098230041,-0.000282458,-0.149121773,0.001595799,0.400284646,-0.000215360,-1.551694133,-0.000406239,-0.248541853,0.000193660,,,,,,,
1736401565.426821,-0.885148449,-0.024888752,,81.521000000,0.098250705,0.019418866,-0.149123107,0.000763027,0.400284562,-0.000144793,-1.551703990,-0.000330150,-0.248542699,0.000138597,,,,,,,
1736401565.428312,-0.885156168,-0.024532000,,81.522000000,0.098205655,-0.026585763,-0.149120293,0.003989814,0.400283941,-0.000610924,-1.551714601,-0.001008264,-0.248543279,0.000349542,,,,,,,
1736401565.430690,-0.885164677,-0.024964691,,81.523000000,0.098232922,-0.000282456,-0.149123200,0.001595816,0.400284182,-0.000215337,-1.551723932,-0.000406224,-0.248544226,0.000193661,,,,,,,
1736401565.435530,-0.885172677,-0.024888609,,81.524000000,0.098253586,0.019418785,-0.149124534,0.000763146,0.400284098,-0.000144776,-1.551733789,-0.000330146,-0.248545072,0.000138600,,,,,,,
1736401565.436838,-0.885180396,-0.024531801,,81.525000000,0.098208537,-0.026584920,-0.149121720,0.003989656,0.400283478,-0.000610901,-1.551744400,-0.001008251,-0.248545653,0.000349541,,,,,,,
1736401565.439291,-0.885188906,-0.024964652,,81.526000000,0.098235803,-0.000282455,-0.149124627,0.001595832,0.400283719,-0.000215314,-1.551753731,-0.000406210,-0.248546600,0.000193662,,,,,,,
1736401565.440524,-0.885196906,-0.024888466,,81.527000000,0.098256466,0.019418704,-0.149125961,0.000763264,0.400283635,-0.000144759,-1.551763587,-0.000330142,-0.248547446,0.000138602,,,,,,,
1736401565.442303,-0.885204625,-0.024531602,,81.528000000,0.098211418,-0.026584078,-0.149123147,0.003989499,0.400283014,-0.000610878,-1.551774198,-0.001008238,-0.248548026,0.000349541,,,,,,,
1736401565.443581,-0.885213134,-0.024964613,,81.529000000,0.098238683,-0.000282453,-0.149126054,0.001595849,0.400283255,-0.000215292,-1.551783529,-0.000406196,-0.248548973,0.000193663,,,,,,,
1736401565.444825,-0.885221134,-0.024888323,,81.530000000,0.098259347,0.019418624,-0.149127388,0.000763382,0.400283171,-0.000144742,-1.551793386,-0.000330138,-0.248549819,0.000138605,,,,,,,
1736401565.450372,-0.885228854,-0.024531403,,81.531000000,0.098214300,-0.026583236,-0.149124574,0.003989341,0.400282550,-0.000610854,-1.551803997,-0.001008225,-0.248550399,0.000349540,,,,,,,
1736401565.452838,-0.885237363,-0.024964574,,81.532000000,0.098241564,-0.000282452,-0.149127481,0.001595867,0.400282791,-0.000215269,-1.551813328,-0.000406182,-0.248551346,0.000193664,,,,,,,
1736401565.455759,-0.885245363,-0.024888180,,81.533000000,0.098262227,0.019418544,-0.149128815,0.000763501,0.400282707,-0.000144725,-1.551823185,-0.000330134,-0.248552192,0.000138608,,,,,,,
1736401565.456838,-0.885253082,-0.024531204,,81.534000000,0.098217181,-0.026582395,-0.149126001,0.003989185,0.400282087,-0.000610831,-1.551833796,-0.001008211,-0.248552772,0.000349539,,,,,,,
1736401565.458841,-0.885261592,-0.024964535,,81.535000000,0.098244444,-0.000282450,-0.149128908,0.001595884,0.400282328,-0.000215246,-1.551843126,-0.000406168,-0.248553719,0.000193665,,,,,,,
1736401565.460888,-0.885269591,-0.024888036,,81.536000000,0.098265108,0.019418466,-0.149130241,0.000763620,0.400282244,-0.000144708,-1.551852983,-0.000330130,-0.248554565,0.000138610,,,,,,,
1736401565.464029,-0.885277311,-0.024531006,,81.537000000,0.098220063,-0.026581554,-0.149127428,0.003989028,0.400281623,-0.000610808,-1.551863594,-0.001008198,-0.248555146,0.000349538,,,,,,,
1736401565.468183,-0.885285820,-0.024964496,,81.538000000,0.098247325,-0.000282449,-0.149130334,0.001595901,0.400281864,-0.000215224,-1.551872925,-0.000406154,-0.248556092,0.000193666,,,,,,,
1736401565.473528,-0.885293820,-0.024887893,,81.539000000,0.098267989,0.019418387,-0.149131668,0.000763738,0.400281780,-0.000144691,-1.551882782,-0.000330126,-0.248556939,0.000138613,,,,,,,
1736401565.478177,-0.885301539,-0.024530807,,81.540000000,0.098222944,-0.026580714,-0.149128855,0.003988871,0.400281159,-0.000610785,-1.551893393,-0.001008185,-0.248557519,0.000349538,,,,,,,
1736401565.481009,-0.885310049,-0.024964457,,81.541000000,0.098250206,-0.000282447,-0.149131761,0.001595919,0.400281400,-0.000215201,-1.551902723,-0.000406140,-0.248558466,0.000193667,,,,,,,
1736401565.485812,-0.885318049,-0.024887749,,81.542000000,0.098270869,0.019418310,-0.149133095,0.000763857,0.400281316,-0.000144673,-1.551912580,-0.000330122,-0.248559312,0.000138615,,,,,,,
1736401565.491002,-0.885325768,-0.024530608,,81.543000000,0.098225826,-0.026579874,-0.149130283,0.003988715,0.400280696,-0.000610762,-1.551923191,-0.001008172,-0.248559892,0.000349537,,,,,,,
1736401565.496100,-0.885334278,-0.024964418,,81.544000000,0.098253086,-0.000282445,-0.149133188,0.001595937,0.400280937,-0.000215178,-1.551932522,-0.000406126,-0.248560839,0.000193668,,,,,,,
1736401565.500316,-0.885342277,-0.024887605,,81.545000000,0.098273750,0.019418233,-0.149134522,0.000763976,0.400280853,-0.000144656,-1.551942379,-0.000330118,-0.248561685,0.000138618,,,,,,,
1736401565.506397,-0.885349996,-0.024530409,,81.546000000,0.098228707,-0.026579034,-0.149131710,0.003988559,0.400280232,-0.000610739,-1.551952990,-0.001008159,-0.248562265,0.000349536,,,,,,,
1736401565.509020,-0.885358506,-0.024964379,,81.547000000,0.098255967,-0.000282444,-0.149134615,0.001595954,0.400280473,-0.000215155,-1.551962321,-0.000406111,-0.248563212,0.000193669,,,,,,,
1736401565.513769,-0.885366506,-0.024887460,,81.548000000,0.098276630,0.019418157,-0.149135949,0.000764095,0.400280389,-0.000144639,-1.551972178,-0.000330114,-0.248564058,0.000138620,,,,,,,
1736401565.518507,-0.885374225,-0.024530211,,81.549000000,0.098231589,-0.026578195,-0.149133137,0.003988403,0.400279768,-0.000610716,-1.551982789,-0.001008146,-0.248564638,0.000349536,,,,,,,
